!!!!SEGMENT: pl-wtm--r-1140-1--001_dobrzynski-ignacy-feliks--quartetto-op-7-allegro-espressivo.krn
!!!cenid: 18xx:1808
!!!COM: Dobrzyński, Ignacy Feliks
!!!COM-rism: pe30020642
!!!CDT: 1807/02/15-1867/10/09
!!!CNT: Polish
!!!OTL: Quartetto op. 7 – Allegro espressivo
!!!PDT:
!!!AGN: Secular; String quartet
!!!OMD: Allo espreſsivo e moderato.
!!!SMS-siglum: PL-Wtm
!!!SMS-shelfmark: R 1140/1
!!!NIFC-rismID: 1001056519
!!!URL-scan: http://repozytorium.nifc.pl/skany/pl-wtm-nut--r1140-1
!!!ONB-nifc: UWAGA: części Kwartetu: 1. Allegro espressivo, 2. Scherzo, 3. Adagio, 4. Finale
!!!SMS-variant:
!!!SMS-altvar:
**kern	**dynam	**kern	**dynam	**kern	**dynam	**kern	**dynam
*	*	*	*	*group1	*group1	*group1	*group1
*part4	*part4	*part3	*part3	*part2	*part2	*part1	*part1
*staff4	*	*staff3	*	*staff2	*	*staff1	*
*I"Violoncello.	*	*I"Viola	*	*	*	*I""Violini.	*
*I'vlc	*	*I'vla	*	*	*	*I''vli	*
*clefF4	*	*clefC3	*	*clefG2	*	*clefG2	*
*k[f#]	*	*k[f#]	*	*k[f#]	*	*k[f#]	*
*M3/4	*	*M3/4	*	*M3/4	*	*M3/4	*
*>[A,A1,A,A2,B]	*	*>[A,A1,A,A2,B]	*	*>[A,A1,A,A2,B]	*	*>[A,A1,A,A2,B]	*
=1	=1	=1	=1	=1	=1	=1	=1
*>A	*	*>A	*	*>A	*	*>A	*
8E\	.	8G/	p	2.r	.	2.e/	.
4E\	.	4G/	.	.	.	.	.
4E\	.	4G/	.	.	.	.	.
[8E\	.	[8G/	.	.	.	.	.
=2	=2	=2	=2	=2	=2	=2	=2
8E\L]	.	8G/L]	.	2.r	.	[2.ee\	<
(8E\	.	(8G/	<	.	.	.	.
8F#\)	.	8A/)	.	.	.	.	.
(8F#\	.	(8A/	.	.	.	.	.
8G\)	.	8B/)	.	.	.	.	.
(8G\J	.	(8B/J	.	.	.	.	.
=3	=3	=3	=3	=3	=3	=3	=3
4.A\)	.	4.c/)	.	2.r	.	4ee\]	[
.	.	.	.	.	.	(8dd#X\L	.
(8G\L	.	(8B/L	[	.	.	8ee\	.
8F#\	.	8A/	.	.	.	8ff#\	.
8E\J)	.	8G/J)	.	.	.	8gg\J	.
=4	=4	=4	=4	=4	=4	=4	=4
2.D#X\	.	2F#/	.	4r	.	4.aa\)	.
.	.	.	.	([2b^<\	.	.	.
.	.	.	.	.	.	(8ff#\L	.
.	.	(4f#\	.	.	.	8bb\	.
.	.	.	.	.	.	8aa\J)	.
=5	=5	=5	=5	=5	=5	=5	=5
4.E\	.	4e\)	>	8b\L]	.	(8gg\L	>
.	.	.	.	.	>	.	.
.	.	.	.	8a'\	.	8ff#\	.
.	.	4r	.	8g\J)	.	8ee\	.
8GG#X/L	.	.	.	[8e/	.	8dd\	.
8AA/	.	8r	.	4e/_	]]	8cc\	.
8BB/J	.	(>8G#X/	]]	.	.	8b\J	]]
=6	=6	=6	=6	=6	=6	=6	=6
2.C/	.	[>2.A/	p	8e/L]	.	2.a\)SSs	p
.	.	.	.	(8e/	.	.	.
.	.	.	.	8fn/	.	.	.
.	.	.	.	8e^>/J)	.	.	.
.	.	.	.	[4e/	.	.	.
=7	=7	=7	=7	=7	=7	=7	=7
2.AA/	.	2A/])	>	2e^/]	.	(4.dd^<\	.
.	.	.	]	.	.	8cc\L	.
.	.	(4A/	.	4c/	.	8a\	.
.	.	.	.	.	.	8f#\J)	.
=8	=8	=8	=8	=8	=8	=8	=8
2BB/	.	4G/	.	2B/	.	(>4e/	.
.	.	4F#/)	.	.	.	4d#X/)	.
4r	.	4r	.	4r	.	(4b\	.
=9	=9	=9	=9	=9	=9	=9	=9
2.D#X\	.	2.r	.	4r	.	4.aa\)	.
.	.	.	.	(4cc\	>	.	.
.	.	.	.	.	.	(8aa\L	>
.	.	.	.	8b\L	]	8gg\	.
.	.	.	.	8a\J)	.	8ff#\J)	]
=10	=10	=10	=10	=10	=10	=10	=10
!LO:TX:t=poco cres-:problem:dynamics with extention lines	!LO:HP:a:t=poco cres	!	!	!	!	!LO:TX:t=poco cres-:problem:dynamics with extention lines	!LO:HP:b:t=poco cres
(8.E\L	<	2.r	.	(>8.g/L	.	2ee\	<
16F#\Jk	.	.	.	16a/Jk	.	.	.
2G\)	.	.	.	4.b/	.	.	.
.	.	.	.	.	.	(4ee-X\	.
.	.	.	.	8b-X/)	.	.	.
=11	=11	=11	=11	=11	=11	=11	=11
2F#\	.	2.r	.	2.a/	.	4dd\)	.
.	.	.	.	.	.	[2ddd\	.
4FF#/	.	.	.	.	.	.	.
=12	=12	=12	=12	=12	=12	=12	=12
8.GG/L	.	4r	.	4b/	.	2ddd\]	.
16AA/Jk	.	.	.	.	.	.	.
2BB/	.	[>2G/	.	2g/	.	.	.
.	[[	.	.	.	.	(4ddd#X\	[[
=13	=13	=13	=13	=13	=13	=13	=13
!!LO:LB:g=original
!	!	!LO:TX:t=P:problem:zakończenie łuku na dole	!	!	!	!	!
2.C/	.	(>8.G/L]	f	(2.e/	.	8eee\L)	f
.	.	.	.	.	.	8ddd'\	.
.	.	16G#X/Jk	.	.	.	.	.
.	.	[2A/	.	.	.	8ccc'\	.
.	.	.	.	.	.	(8bbt\	.
.	.	.	.	.	.	8aa\)	.
.	.	.	.	.	.	8gg'\J	.
=14	=14	=14	=14	=14	=14	=14	=14
2.D\	.	2A/])	>	2.f#/)	.	8ff#'\L	>
.	.	.	.	.	.	(8eeT\	.
.	.	.	.	.	.	8dd\)	.
.	.	.	.	.	.	8cc'\	.
.	.	4c\	]]	.	.	8b'\	.
.	.	.	.	.	.	8a'\J	]
=15	=15	=15	=15	=15	=15	=15	=15
8G\L	.	8B\L	p	8g/L	.	4g/	p
8G\J	.	8B\J	.	8g/J	.	.	.
*tremolo	*	*tremolo	*	*tremolo	*	*	*
8F#^\L	.	8A\L	.	8d#X/L	.	(2b^>/	.
8F#\	.	8A\	.	8d#/	.	.	.
8F#\	.	8A\	.	8d#/	.	.	.
8F#\J	.	8A\J	.	8d#/J	.	.	.
=16	=16	=16	=16	=16	=16	=16	=16
8E\L	.	8G/L	.	8e/L	.	4e/)	.
8E\J	.	8G/J	.	8e/J	.	.	.
8AA/L	.	8c^<\L	.	8e^/L	.	(2f#^>/	.
8AA/J	.	8c\J	.	8e/	.	.	.
8AA#X/L	.	8c#X\L	.	8e/	.	.	.
8AA#/J	.	8c#\J	.	8e/J	.	.	.
=17	=17	=17	=17	=17	=17	=17	=17
*	*	*Xtremolo	*	*	*	*	*
[2.BB/	.	8B\L	.	8d#X/L	.	4B/)	.
.	.	8B\	<	8d#/J	<	.	.
*	*	*	*	*Xtremolo	*	*	*
.	.	8d#X\	.	8b\L	.	4r	.
.	.	(8d#\	.	(8b\	.	.	.
.	.	8e\)	.	8cc\)	.	4r	.
.	.	(8e\J	[[	(8cc\J	[[	.	.
=18	=18	=18	=18	=18	=18	=18	=18
!	!	!	!	!	!	!LO:TX:a:t=1	!
2.BB/]	.	8e#X\L)	>	8cc#X\L)	>	2.r	.
.	.	(8e#\J	.	(8cc#\	.	.	.
.	.	8f#\)	.	8dd\)	.	.	.
.	.	4f#\	.	(8dd\	.	.	.
.	.	.	.	8dd#X\)	.	.	.
.	.	(8f#\	]]	(8dd#\J	]]	.	.
=19	=19	=19	=19	=19	=19	=19	=19
8E\	.	8e\)	p	4ee\)	.	2.e/	p
4E\	.	4G/	.	.	.	.	.
.	.	.	.	4r	.	.	.
4E\	.	4G/	.	.	.	.	.
.	.	.	.	4r	.	.	.
[8E\	.	[8G/	.	.	.	.	.
=20	=20	=20	=20	=20	=20	=20	=20
8E\L]	.	8G/L]	.	2.r	.	[2.ee\	<
(8E\	.	(8G/	<	.	.	.	.
8F#\)	.	8A/)	.	.	.	.	.
(8F#\	.	(8A/	.	.	.	.	.
8G\)	.	8B/)	.	.	.	.	.
(8G\J	.	(8B/J	.	.	.	.	.
=21	=21	=21	=21	=21	=21	=21	=21
4.A\)	.	4.c/)	.	2.r	.	4ee\]	.
.	.	.	.	.	.	(8dd#X\L	.
(8G\L	.	(8B/L	.	.	.	8ee\	[[
8F#\	.	8A/	.	.	.	8ff#\	.
8E\J)	.	8G/J)	[[	.	.	8gg\J)	.
=22	=22	=22	=22	=22	=22	=22	=22
2.D#X\	.	2F#/	.	4r	.	(4.aa\	.
.	.	.	.	[2b^<\	.	.	.
.	.	.	.	.	.	8ff#\L	.
.	.	(4f#\	.	.	.	8bb\	.
.	.	.	.	.	.	8aa\J	.
=23	=23	=23	=23	=23	=23	=23	=23
!	!LO:HP:a	!	!	!LO:TX:t=cres-:problem:dynamics with extention lines	!LO:HP:b:t=cres	!LO:TX:t=cres-:problem:dynamics with extention lines	!LO:HP:b:t=cres
2.Dn\	<	4e\)	.	2.b\]	<	2.gg#X\)	<
.	.	(4fn\	<	.	.	.	.
.	.	[4e\	[	.	[[	.	[[
=24	=24	=24	=24	=24	=24	=24	=24
8.C/L	.	8.e\L]	f	8.a/L	f	(8.aa\L	f
16BB/Jk	.	16e\Jk)	.	16g#X/Jk	.	16bb\Jk	.
4AA/	.	4e\	.	4a/	.	4ccc\)	.
4GG/	.	(4e\	.	[4a/	.	([4ccc\	.
=25	=25	=25	=25	=25	=25	=25	=25
4FF#/	.	4d#X\)	.	4a/]	.	8ccc\L]	.
.	.	.	.	.	.	8bb\J)	.
4r	.	4r	.	4r	.	([4fff#\	>
!	!	!	!	!	!	!LO:TUP:a	!
4r	.	4r	.	4r	.	12fff#\L]	.
.	.	.	.	.	.	12ddd#X\	.
.	.	.	.	.	.	12bb\J)	]]
=26	=26	=26	=26	=26	=26	=26	=26
!	!	!	!	!	!	!LO:TUP:a	!
4r	.	4r	.	4r	.	(12aa\L	p
.	.	.	.	.	.	12ff#\	.
.	.	.	.	.	.	12dd#X\J	.
*	*	*	*	*	*	*Xtuplet	*
(4D#X'\	.	(4f#'\	p	(>4a/ 4B'>/	p	12b/L	.
.	.	.	.	.	.	12a/	.
.	.	.	.	.	.	12f#/J	.
!	!	!	!	!	!	!LO:TX:a:t=P:problem:mixedbeam	!
4D#'\)	.	4f#'\)	.	4a/ 4B'>/)	.	12d#X/L	.
.	.	.	.	.	.	12.cc\	.
.	.	.	.	.	.	24b\Jk	.
=27	=27	=27	=27	=27	=27	=27	=27
!!LO:LB:g=original
!	!	!	!	!	!	!LO:TX:t=P:problem:brak zakończenia łuku	!
4E\	.	4e\	.	4g/ 4B/	.	4b\)	.
8r	.	8r	.	4r	.	[2ee\	>
(8E\L	.	(8G#X/L	.	.	.	.	.
8F#\	.	8A/	.	4r	.	.	]
8G#X\J	.	8B/J	.	.	.	.	.
=28	=28	=28	=28	=28	=28	=28	=28
8A'\L	.	8c'\L	.	2.r	.	4.ee\]	.
8B'\J	.	8d'\J	.	.	.	.	.
4c'\)	.	4e'\)	.	.	.	.	.
.	.	.	.	.	.	(16dd\LL	.
.	.	.	.	.	.	16cc\JJ	.
4r	.	4r	.	.	.	16b/LL	.
.	.	.	.	.	.	16a/	.
.	.	.	.	.	.	16g/	.
.	.	.	.	.	.	16f#/JJ)	.
=29	=29	=29	=29	=29	=29	=29	=29
8.r	.	4r	.	4r	.	(2e/	.
(16AA#X/	.	.	.	.	.	.	.
2BB/)	.	[2G/	.	4r	.	.	.
.	.	.	.	(4d/	.	8.g^>/L	.
.	.	.	.	.	.	16fn/Jk)	.
=30	=30	=30	=30	=30	=30	=30	=30
[2.C/	.	4.G/]	.	4c/)	.	4e/	.
!	!	!	!	!	!	!LO:TX:t=cres-:problem:dynamics with extention lines	!LO:HP:b:t=cres
.	.	.	.	[2e/	.	[2ee\	<
!	!	!LO:TX:t=cres-:problem:dynamics with extention lines	!LO:HP:b:t=cres	!	!	!	!
.	.	(>8D#X/L	<	.	.	.	.
.	.	8E/	.	.	.	.	.
.	.	8F#/J	.	.	.	.	.
=31	=31	=31	=31	=31	=31	=31	=31
2.C/]	.	8.G/L	.	2.e/_	.	2ee\]	.
.	.	16A/Jk)	.	.	.	.	.
.	.	(>2A#Xt/	.	.	.	.	.
.	.	.	.	.	.	8.gg\L	.
.	.	.	[	.	.	16ee\Jk	[
.	.	16qqF##X/LL	.	.	.	.	.
.	.	16qqG/JJ	.	.	.	.	.
=32	=32	=32	=32	=32	=32	=32	=32
4BB/	.	4B/)	f	4e/]	.	8bb\L	f
.	.	.	.	.	.	16gg\L	.
.	.	.	.	.	.	16ee\JJ	.
4r	.	4r	.	4r	.	16gg\LL	.
.	.	.	.	.	.	16ee\	.
.	.	.	.	.	.	16b\	.
.	.	.	.	.	.	16g\JJ	.
4r	.	4r	.	4r	.	16ee/LL	.
.	.	.	.	.	.	16b/	.
.	.	.	.	.	.	16g/	.
.	.	.	.	.	.	16e/JJ	.
=33	=33	=33	=33	=33	=33	=33	=33
*	*	*tremolo	*	*tremolo	*	*	*
2.BB/	.	8G/L	>	8B/L	.	2B/	>
.	.	8G/J	.	8B/J	.	.	.
.	.	8F#/L	.	8A/L	.	.	.
.	.	8F#/	.	8A/	.	.	.
.	.	8F#/	.	8A/	.	4d#Xt/	.
.	.	8F#/J	]]	8A/J	.	.	]
.	.	.	.	.	.	(16qqc#X/LL	.
.	.	.	.	.	.	16qqd#/JJ)	.
=34	=34	=34	=34	=34	=34	=34	=34
!	!	!LO:TX:a:t=P:problem:mixedbeam	!	!LO:TX:a:t=P:problem:mixedbeam	!	!	!
2.EE/	.	8E/L	p	8G/L	.	4e/	p
.	.	8g\J	.	8ee\J	.	.	.
.	.	8g\L	.	8ee\L	.	4r	.
.	.	8g\	.	8ee\	.	.	.
.	.	8g\	.	8ee\	.	4r	.
.	.	8g\J	.	8ee\J	.	.	.
=35	=35	=35	=35	=35	=35	=35	=35
[2.E\	.	8g#X\L	<	8ee\L	<	2.r	.
.	.	8g#\J	.	8ee\J	.	.	.
.	.	8a\L	.	8dd#\L	.	.	.
.	.	8a\J	.	8dd#\J	.	.	.
.	.	8b\L	.	8ddn\L	.	.	.
.	.	8b\J	[[	8dd\J	[[	.	.
=36	=36	=36	=36	=36	=36	=36	=36
4E\]	.	(4.a\	.	4cc\	.	4r	.
(8D#X\L	.	.	.	[2b\	.	4r	.
8E\	.	8g\L	.	.	.	.	.
8F#\	.	8f#\	.	.	.	(8dd#X\L	<
8G\J)	.	8e\J)	.	.	.	8ee\J	.
=37	=37	=37	=37	=37	=37	=37	=37
4.A\	.	(8d#X\L	.	2.b\_	.	8ff#\L	.
.	.	8e\J	.	.	.	8gg\J	.
.	.	2f#\)	.	.	.	4aa\)	.
(8F#\L	.	.	.	.	.	.	.
8B\	.	.	.	.	.	(4dd#Xt\	[
8A\J)	.	.	.	.	.	.	.
.	.	.	.	.	.	(16qqcc#X/LL	.
.	.	.	.	.	.	16qqdd#/JJ)	.
=38	=38	=38	=38	=38	=38	=38	=38
(8.G\L	.	[2.e\	.	8.b\L]	.	4ee\)	.
16F#\Jk)	.	.	.	16a\Jk	.	.	.
!	!	!	!	!	!	!LO:TX:t=P:problem:brak poczatku ligatury	!
(4E\	.	.	.	4g/	.	([2eee\	.
4D\	.	.	.	4g#X/	.	.	.
=39	=39	=39	=39	=39	=39	=39	=39
!!LO:LB:g=original
*	*	*	*	*	*	*Xtuplet	*
!LO:TX:t=P:problem:zakończenie łuku na dole	!	!	!	!	!	!	!
4C/)	.	4e\]	.	4a/	.	12eee\L]	>
.	.	.	>	.	>	12ddd\	.
.	.	.	.	.	.	12ccc\J)	.
4AA/	.	4e\ 4c\	.	4a/	.	((12ccc^<\L	.
.	.	.	]	.	]	12bb\	.
.	.	.	.	.	.	12aa\J)	.
4r	.	4r	.	4r	.	(12aa^<\L	.
.	.	.	.	.	.	12gg\	]
.	.	.	.	.	.	12ff#\J))	.
=40	=40	=40	=40	=40	=40	=40	=40
4r	.	4r	.	4r	.	(8.ee\L	.
.	.	.	.	.	.	16ff#\K	<
(4BB'/	.	(4e'\	<	(4g'/	.	8.gg\	.
.	.	.	.	.	.	16aa\K)	.
4BB'/)	.	4d#X'\)	[[	4a'/)	.	(8.ff#\	[[
.	.	.	.	.	.	16gg\Jk)	.
=41	=41	=41	=41	=41	=41	=41	=41
2EE/	.	2e\	f	2g/ 2B/	.	8ee\L	f
.	.	.	.	.	.	16bb\L	.
.	.	.	.	.	.	(16aa#X\JJ	.
.	.	.	.	.	.	16bb\LL)	.
.	.	.	.	.	.	(16ff#\	.
.	.	.	.	.	.	16gg\)	.
.	.	.	.	.	.	(16dd#X\JJ	.
4E\	.	4e\	.	4g/ 4B/	.	16ee\LL)	.
.	.	.	.	.	.	(16a#X\	.
.	.	.	.	.	.	16b\)	.
.	.	.	.	.	.	(16f#\JJ	.
=42	=42	=42	=42	=42	=42	=42	=42
4E\	.	4e\	.	4g/ 4B/	.	16g/LL)	.
.	.	.	.	.	.	(16d#X/	.
.	.	.	.	.	.	16e/)	.
.	.	.	.	.	.	16g'/JJ	.
4E\	.	4e\	.	4g/ 4B/	.	16b'\LL	.
.	.	.	.	.	.	16g'\	.
.	.	.	.	.	.	16b'\	.
.	.	.	.	.	.	16ee'\JJ	.
4E\	.	4e\	.	4g/ 4B/	.	16gg'\LL	.
.	.	.	.	.	.	(16gg\	.
.	.	.	.	.	.	16ff#\	.
.	.	.	.	.	.	16ee\JJ)	.
=43	=43	=43	=43	=43	=43	=43	=43
[2F#\	.	[2.B/	.	[>2a/	.	(16dd#X\LL	.
.	.	.	.	.	.	16aa\)	.
.	.	.	.	.	.	16ff#'\	.
.	.	.	.	.	.	16dd#'\JJ	.
.	.	.	.	.	.	(16b\LL	.
.	.	.	.	.	.	16ccn\)	.
.	.	.	.	.	.	16a'\	.
.	.	.	.	.	.	16g'\JJ	.
*	*	*	*	*Xtremolo	*	*	*
8F#\L]	.	.	.	8a/L]	.	(16f#^>/LL	.
.	.	.	.	.	.	16b/	.
8G\J	.	.	.	8g/J	.	(16e^>/)	.
.	.	.	.	.	.	16b/JJ)	.
=44	=44	=44	=44	=44	=44	=44	=44
4A\	.	4B/]	.	4f#/	.	(16d#X/LL	.
.	.	.	.	.	.	16f#/)	.
.	.	.	.	.	.	16a'/	.
.	.	.	.	.	.	16b'/JJ	.
2BB/	.	(4d#X\	.	2a/	.	8cc^<T\L	.
.	.	.	.	.	.	16b\L	.
.	.	.	.	.	.	16a\JJ	.
!	!	!	!	!	!	!LO:TX:a:t=P:problem:mixedbeam	!
.	.	4f#\)	.	.	.	8aa\Lo	.
.	.	.	.	.	.	8d#/J	.
=45	=45	=45	=45	=45	=45	=45	=45
!	!	!	!	!	!	!LO:TX:a:t=P:problem:mixedbeam	!
2EE/	.	2e\	.	2g/ 2B/	.	8e/L	.
.	.	.	.	.	.	16bb\'L	.
.	.	.	.	.	.	(16aa#X\JJ	.
.	.	.	.	.	.	16bb\LL)	.
.	.	.	.	.	.	(16ff#\	.
.	.	.	.	.	.	16gg\)	.
.	.	.	.	.	.	(16dd#X\JJ	.
4E\	.	4e\	.	4g/ 4B/	.	16ee\LL)	.
.	.	.	.	.	.	(16a#X\	.
.	.	.	.	.	.	16b\)	.
.	.	.	.	.	.	(16f#\JJ	.
=46	=46	=46	=46	=46	=46	=46	=46
4E\	.	4e\	.	4g/ 4B/	.	16g/LL)	.
.	.	.	.	.	.	(16d#X/	.
.	.	.	.	.	.	16e/)	.
.	.	.	.	.	.	16g'/JJ	.
4E\	.	4e\	.	4g/ 4B/	.	16b'\LL	.
.	.	.	.	.	.	16ee'\	.
.	.	.	.	.	.	16gg'\	.
.	.	.	.	.	.	16bb'\JJ	.
4E\	.	4e\	.	4g/ 4B/	.	(16eee\LL	.
.	.	.	.	.	.	16ggg\	.
.	.	.	.	.	.	16fff#\	.
.	.	.	.	.	.	16eee\JJ)	.
=47	=47	=47	=47	=47	=47	=47	=47
!LO:TX:t=P:problem:brak poczatku ligatury	!	!	!	!LO:TX:t=P:problem:brak poczatku ligatury	!	!	!
[2.F#\	.	[2.d\	f	[>2.a/	.	8ddd\L	f
.	.	.	.	.	.	16ddd'\L	.
.	.	.	.	.	.	16ccc#X'\JJ	.
.	.	.	.	.	.	16cccn'\LL	>
.	.	.	.	.	.	16bb'\	.
.	.	.	.	.	.	16aa'\	.
.	.	.	.	.	.	16gg'\JJ	.
.	.	.	.	.	.	16ff#'\LL	.
.	.	.	.	.	.	16ee'\	.
.	.	.	.	.	.	16dd'\	]
.	.	.	.	.	.	16cc#X'\JJ	.
=48	=48	=48	=48	=48	=48	=48	=48
!!LO:PB:g=original
4F#\]	.	4d\]	.	2a/]	.	16ccn'\LL	.
.	.	.	.	.	.	16b'\	.
.	.	.	.	.	.	16a'\	.
.	.	.	.	.	.	16g'\JJ	.
4FF#/	.	4A/	.	.	.	(>16f#/LL	.
.	.	.	.	.	.	16e/	.
.	.	.	.	.	.	16d/	.
.	.	.	.	.	.	16c#X/JJ	.
4FF#/	.	4A/	.	[4dd\	.	16d/LL	.
.	.	.	.	.	.	16e/	.
.	.	.	.	.	.	16d/	.
.	.	.	.	.	.	16cn/JJ)	.
=49	=49	=49	=49	=49	=49	=49	=49
8GG/L	.	4B/	.	4dd\]	.	4B/	.
16FF#/L	.	.	.	.	.	.	.
16GG/JJ	.	.	.	.	.	.	.
16BB/LL	.	(2d\	fz	[2b\	fz	[2gg\	fz
16GG/	.	.	.	.	.	.	.
16D/	.	.	.	.	.	.	.
16BB/JJ	.	.	.	.	.	.	.
!LO:TX:a:t=P:problem:mixedbeam	!	!	!	!	!	!	!
8G\L	.	.	.	.	.	.	.
(8GG/J	.	.	.	.	.	.	.
=50	=50	=50	=50	=50	=50	=50	=50
4EE/)	.	4e\)	.	4b\]	.	(8gg\L]	.
.	.	.	.	.	.	16gg\L	.
.	.	.	.	.	.	16ff#\JJ	.
2AA^>/	.	([4A^>/	.	(16cc#X\LL	.	16ee\LL	.
.	.	.	.	16b\	.	16dd\	.
.	.	.	.	16a\	.	16cc#X\	.
.	.	.	.	16g\JJ	.	16b\JJ	.
.	.	8.A/L]	.	16f#/LL	.	16a/LL	.
.	.	.	.	16e/	.	16g/	.
.	.	.	.	16d/	.	16f#/	.
.	.	16G/Jk)	.	16c#X/JJ	.	16e/JJ)	.
=51	=51	=51	=51	=51	=51	=51	=51
(16F#/LL	.	4F#/	.	4d/)	.	4d/	.
16DD/)	.	.	.	.	.	.	.
16FF#'/	.	.	.	.	.	.	.
16AA'/JJ	.	.	.	.	.	.	.
[2D/	.	16r	.	4r	.	4r	.
.	.	(16D/LL	.	.	.	.	.
.	.	16F#/)	.	.	.	.	.
.	.	16A'/JJ	.	.	.	.	.
.	.	[4d\	.	4r	.	16r	.
.	.	.	.	.	.	(16f#/LL	.
.	.	.	.	.	.	16a/)	.
.	.	.	.	.	.	16dd'/JJ	.
=52	=52	=52	=52	=52	=52	=52	=52
!	!	!	!	!	!	!LO:TX:t=cres-:problem:dynamics with extention lines	!LO:HP:b:t=cres
16D/LL]	.	4d\_	.	2.f#/ 2.A/	.	[2ff#\	<
16DD/	.	.	.	.	.	.	.
16FF#/	.	.	.	.	.	.	.
16AA/JJ	.	.	.	.	.	.	.
*	*	*Xtremolo	*	*	*	*	*
!	!	!LO:TX:a:t=P:problem:mixedbeam	!	!	!	!	!
!	!	!LO:TX:t=cres-:problem:dynamics with extention lines	!LO:HP:b:t=cres	!	!	!	!
[2D/	.	(>16d\LL]	<	.	.	.	.
.	.	16F#/	.	.	.	.	.
.	.	16A/	.	.	.	.	.
.	.	16d/JJ)	.	.	.	.	.
.	.	[4f#\	.	.	.	16ff#\LL]	.
.	.	.	.	.	.	(16a\	.
.	.	.	.	.	.	16dd\)	.
.	.	.	.	.	.	16ff#'\JJ	.
=53	=53	=53	=53	=53	=53	=53	=53
16D/LL]	.	4f#\_	.	2.a/ 2.f#/	.	[2aa\	.
(16DD/	.	.	.	.	.	.	.
16FF#/)	.	.	.	.	.	.	.
16AA/JJ	.	.	.	.	.	.	.
[2D/	.	(16f#\LL]	.	.	.	.	.
.	.	16A\	.	.	.	.	.
.	.	16d\	.	.	.	.	.
.	.	16f#\JJ)	.	.	.	.	.
.	.	[4a\	.	.	.	16aa\LL]	.
.	.	.	.	.	.	(16dd\	.
.	.	.	.	.	.	16ff#\)	.
.	.	.	[[	.	.	16aa'\JJ	[[
=54	=54	=54	=54	=54	=54	=54	=54
4D/]	.	4a\]	ff	4dd/ 4f#/	.	4.ccc\	ff
4DD/	.	4a\ 4d\	sf	4ff#/ 4a/ 4d/	sf	.	.
.	.	.	.	.	.	(8bb'\L	.
4r	.	4r	.	4r	.	8aa'\	.
.	.	.	.	.	.	8gg'\J	.
=55	=55	=55	=55	=55	=55	=55	=55
2.r	.	2.r	.	2.r	.	8ff#'\L	>
.	.	.	.	.	.	8ee'\	.
.	.	.	.	.	.	8dd'\	.
.	.	.	.	.	.	(8dd#X\	.
.	.	.	.	.	.	8ee\	.
.	.	.	.	.	.	8cc\J)	]]
=56	=56	=56	=56	=56	=56	=56	=56
*	*	*tremolo	*	*tremolo	*	*	*
2.r	.	8d#X\L	p	8f#/L	.	(2b\)	p
.	.	8d#\	.	8f#/	.	.	.
.	.	8d#\	.	8f#/	.	.	.
.	.	8d#\	.	8f#/	.	.	.
.	.	.	.	.	.	(8qdd/	.
.	.	8d#\	.	8f#/	.	8.cc\L)	.
.	.	8d#\J	.	8f#/J	.	.	.
.	.	.	.	.	.	16b\Jk	.
=57	=57	=57	=57	=57	=57	=57	=57
2.r	.	(4e\	.	(>4g/	.	([2ee\)	.
.	.	2g\)	.	4b/	.	.	.
.	.	.	.	4b-X/	.	8ee\L]	.
.	.	.	.	.	.	8ee-X\J)	.
=58	=58	=58	=58	=58	=58	=58	=58
4r	.	(2f#\	.	2a/	.	(8.dd\L	.
.	.	.	.	.	.	16cc#X\Jk)	.
(4D#X^<\	.	.	.	.	.	(4ccn^<\	.
4E\)	.	4g\)	.	4g/)	.	[4b\	.
=59	=59	=59	=59	=59	=59	=59	=59
!!LO:LB:g=original
(4C\	.	(4c/	.	(>4e/	.	8.b\L])	.
.	.	.	.	.	.	16a\Jk	.
2D\)	.	8B/L	.	8d/L	.	(4g/	.
.	.	8B-X/J	.	8c#X/J	.	.	.
.	.	4A/	.	4cn/	.	4f#t/	.
.	.	.	.	.	.	(16qqe/LL)	.
.	.	.	.	.	.	16qqf#/JJ)	.
=60	=60	=60	=60	=60	=60	=60	=60
4GG/	.	8G/L)	p	8B/L)	.	4g/	p
.	.	8B/J	.	8d/J	.	.	.
4r	.	8B/L	.	8d/L	.	4r	.
.	.	8B/	.	8d/	.	.	.
4r	.	8B/	.	8d/	.	4r	.
.	.	8B/J	.	8d/J	.	.	.
=61	=61	=61	=61	=61	=61	=61	=61
!	!	!	!	!	!	!LO:TX:b:i:t=dol&colon;	!
8r	p	8B/L	.	8d/L	.	2gg\	.
!LO:TX:b:i:t=pizz&colon;	!	!	!	!	!	!	!
8GG/L	.	8B/	.	8d/	.	.	.
8BB/	.	8B/	.	8d/	.	.	.
8D/J	.	8B/	.	8d/	.	.	.
4G\	.	8B/	.	8d/	.	(8.b\L	.
.	.	8B/J	.	8d/J	.	.	.
.	.	.	.	.	.	16cc\Jk)	.
=62	=62	=62	=62	=62	=62	=62	=62
!LO:TX:a:t=P:problem:mixedbeam	!	!	!	!	!	!	!
*	*	*	*	*tremolo	*	*	*
8GG/L	.	8B/L	.	8d/L	.	4dd'\	.
8G\	.	8B/	.	8d/J	.	.	.
8E\	.	8B/	.	8e/L	.	(4g'/	.
8EE/J	.	8B/J	.	8e/J	.	.	.
8AA/L	.	8c#X^/L	.	8g/L	.	4a'/)	.
8AA/J	.	8c#/J	.	8g/J	.	.	.
=63	=63	=63	=63	=63	=63	=63	=63
!	!	!LO:TX:a:t=P:problem:mixedbeam	!	!	!	!	!
*	*	*	*	*Xtremolo	*	*	*
4D\	.	8d'\L	.	8f#'/L	.	(>2d/	.
.	.	8F#'/	.	8d'/	.	.	.
4r	.	8F#'/	.	8d'/	.	.	.
.	.	(8F#/	.	(8d/	.	.	.
4D\	.	8G/	.	8c#X/	.	8e/L	.
.	.	8A/J)	.	8cn/J)	.	8f#/J)	.
=64	=64	=64	=64	=64	=64	=64	=64
*tremolo	*	*tremolo	*	*tremolo	*	*	*
8GG/L	.	4G/	.	8B/L	.	(8.g/L	.
8GG/J	.	.	.	8B/J	.	.	.
.	.	.	.	.	.	16a/Jk	.
8G\L	.	8d\L	.	8g/L	.	4b'\	.
8G\J	.	8d\J	.	8g/J	.	.	.
8F#\L	.	8d#X\L	.	8a/L	.	4b'\)	.
8F#\J	.	8d#\J	.	8a/J	.	.	.
=65	=65	=65	=65	=65	=65	=65	=65
!	!	!	!	!	!	!LO:TX:b:i:t=espres&colon;	!
.	.	.	.	.	.	8qb/	.
4E\	.	4e\	.	4g/	.	(2gg\	.
4r	.	4r	.	4b\	.	.	.
!LO:TX:a:t=arco	!	!	!	!	!	!	!
4AA/	.	4a\	.	4cc\	.	8ff#\L	.
.	.	.	.	.	.	8ee\J)	.
=66	=66	=66	=66	=66	=66	=66	=66
2.BB/	.	(2.f#\	.	(4.a\	.	(2.dd#Xt\	.
.	.	.	.	.	>	.	.
.	.	.	.	8cc\L	.	.	.
.	.	.	.	8b\	]]	.	.
.	.	.	.	8a\J)	.	.	.
.	.	.	.	.	.	(16qqcc##/LL	.
.	.	.	.	.	.	16qqdd#/JJ)	.
=67	=67	=67	=67	=67	=67	=67	=67
4E\	.	4e\)	.	4g/	.	4ee'\)	.
2D\	.	(4.g\	.	4r	.	(4ffn^<\	.
.	.	.	.	4r	.	4b\)	.
.	.	8fn\	.	.	.	.	.
=68	=68	=68	=68	=68	=68	=68	=68
[2.C/	.	([2.e\)	.	2.r	.	(8cc\L	.
.	.	.	.	.	.	8dd\	<
.	.	.	<	.	.	8ee\	.
.	.	.	.	.	.	8dd\	.
.	.	.	.	.	.	8cc\	.
.	.	.	.	.	.	8b\J	[[
=69	=69	=69	=69	=69	=69	=69	=69
2.C/]	.	8e\L]	.	2.r	.	2.a#X\	>]
.	.	8f#\	.	.	.	.	.
.	.	8g\)	[	.	.	.	.
.	.	(8g^<\	.	.	.	.	.
.	.	8f#\	.	.	.	.	.
.	.	8e\J)	.	.	.	.	.
=70	=70	=70	=70	=70	=70	=70	=70
4BB/	.	4d#X\	.	4r	.	4b\)	.
8r	.	4r	.	[2b\	.	(8bb\L	<
(8D#X\L	.	.	.	.	.	8ff#\	.
8E\	.	4r	.	.	.	8gg\	.
8F#\J	.	.	.	.	.	8dd#X\J	[[
=71	=71	=71	=71	=71	=71	=71	=71
8G\L	.	8r	.	2b\]	.	8ee\L	>
8F#\J	.	(8d#X\L	.	.	.	8ff#\J	.
4E\)	.	8e\	.	.	.	4gg\)	.
.	.	8g\	.	.	.	.	.
(4F#^<\	.	8f#\	.	4cc#X\	.	(4a#X\	]
.	.	8e\J	.	.	.	.	.
=72	=72	=72	=72	=72	=72	=72	=72
!!LO:LB:g=original
!	!	!LO:TX:t=P:problem:brak zakończenia łuku	!	!	!	!	!
4BB/)	.	4d#X\)	.	([2.b\	.	4b\)	.
8r	.	4r	.	.	.	(8bb\L	<
(8D#X\L	.	.	.	.	.	8ff#\	.
8E\	.	4r	.	.	.	8gg\	.
8F#\J	.	.	.	.	.	8dd#X\J	[[
=73	=73	=73	=73	=73	=73	=73	=73
8G\L	.	8r	.	2b\]	.	8ee\L	.
8F#\J	.	(8d#X\L	.	.	.	8ff#\J	>
4E\)	.	8e\	.	.	.	4gg\)	.
.	.	8g\	.	.	.	.	.
(4F#\	.	8f#\	.	4cc#X\	.	(4a#X\	]]
.	.	8e\J	.	.	.	.	.
=74	=74	=74	=74	=74	=74	=74	=74
!	!	!	!	!	!	!LO:TX:a:t=P:problem:mixedbeam	!
4BB/)	.	8d#X\)	.	8b\)	.	8b\L)	p
.	.	8r	.	8r	.	8B'/J	.
8r	.	(4d#\	.	(>4f#/	.	[2b^\	.
!	!	!	!	!	!	!LO:TX:t=dimin-:problem:dynamics with extention lines	!LO:HP:b:t=dimin
(8BB\L	.	.	.	.	.	.	>
8E\	.	4e\	.	4g/	.	.	.
8G\J	.	.	.	.	.	.	.
=75	=75	=75	=75	=75	=75	=75	=75
!	!	!	!	!	!	!LO:TX:a:t=P:problem:mixedbeam	!
4B\)	.	2d#X\	.	2f#/	.	8b\L]	.
.	.	.	.	.	.	8B/J	.
8r	.	.	.	.	.	[2b^\	.
(8BB\L	.	.	.	.	.	.	.
8E\	.	4e\)	.	4g/)	.	.	.
8G\J	.	.	.	.	.	.	]]
=76	=76	=76	=76	=76	=76	=76	=76
4B\)	.	[2.d#X\	.	[2.f#/	.	2.b\_	<
[2BB/	.	.	.	.	.	.	.
=77	=77	=77	=77	=77	=77	=77	=77
4BB/]	.	4d#\]	.	4f#/]	.	4b\]	.
4AA/	.	(2e-X\	.	(>4f#/	.	[2cc\	.
4GG/	.	.	.	4g/	.	.	[
=78	=78	=78	=78	=78	=78	=78	=78
4FF#/	.	4dn\)	.	4a/)	.	8cc\L]	f
.	.	.	.	.	.	(16ccc\L	.
.	.	.	.	.	.	16bb\JJ	.
4r	.	4r	.	4r	.	16aa\LL	.
.	.	.	.	.	.	16gg\	.
.	.	.	.	.	.	16ff#\	.
.	.	.	.	.	.	16ee\JJ	.
4r	.	4r	.	4r	.	16dd\LL	.
.	.	.	.	.	.	16dd#X\	.
.	.	.	.	.	.	16ee\	.
.	.	.	.	.	.	16b\JJ)	>
=79	=79	=79	=79	=79	=79	=79	=79
2.r	.	2.r	.	2.r	.	(16ddn\LL	.
.	.	.	.	.	.	16cc\	.
.	.	.	.	.	.	16a\	]
.	.	.	.	.	.	16f#\JJ	.
!	!	!	!	!	!	!LO:TX:a:t=P:problem:mixedbeam	!
.	.	.	.	.	.	8d/L)	<
.	.	.	.	.	.	(8dd\	[[
.	.	.	.	.	.	8.ddd\	>
.	.	.	.	.	.	16ccc\Jk)	]]
*clefG2	*	*	*	*	*	*	*
=80	=80	=80	=80	=80	=80	=80	=80
2gg\	mf	4r	.	8r	.	4bb\	.
.	.	.	.	16G/LL	mf	.	.
.	.	.	.	16B/JJ	.	.	.
.	.	4r	.	16d/LL	.	4r	.
.	.	.	.	16g/	.	.	.
.	.	.	.	16b/	.	.	.
.	.	.	.	16dd/JJ	.	.	.
(8.b\L	.	(8.g\L	.	[4gg\	.	4r	.
16cc\Jk)	.	16a\Jk	.	.	.	.	.
=81	=81	=81	=81	=81	=81	=81	=81
4dd'\	.	2b\)	.	4gg\]	.	2.r	.
(4g'/	.	.	.	(8ff#\L	.	.	.
.	.	.	.	8ffn\	.	.	.
4a'/)	.	[4cc\	.	8ee\	.	.	.
.	.	.	.	8ee-X\J	.	.	.
=82	=82	=82	=82	=82	=82	=82	=82
(>2d/	.	4cc\]	.	4dd\)	.	(16ff#\LL	mf
.	.	.	.	.	.	16ccc\)	.
.	.	.	.	.	.	16bb'\	.
.	.	.	.	.	.	16aa'\JJ	.
.	.	(4f#\	.	4r	.	16gg'\LL	.
.	.	.	.	.	.	16ff#'\	.
.	.	.	.	.	.	16ee'\	.
.	.	.	.	.	.	16dd'\JJ	.
8e/L	.	8g\L	.	4r	.	(16cc#X\LL	.
.	.	.	.	.	.	16dd\	.
8f#/J)	.	8a\J	.	.	.	16ccn\	.
.	.	.	.	.	.	16dd\JJ)	.
=83	=83	=83	=83	=83	=83	=83	=83
(8g\L	.	4b\)	.	8r	.	(16bb\LL	<
.	.	.	<	.	.	16bbb\)	.
8a\J	.	.	.	(8f#/	.	16bbb'\	.
.	.	.	.	.	.	16bbb'\JJ	.
*	*	*	*	*	*	*8va	*
4b\)	.	[>2B/	.	4g/)	.	(16bb\LL	.
.	.	.	.	.	.	16eee\)	.
.	.	.	.	.	.	16eee'\	.
.	.	.	[[	.	.	16eee'\JJ	.
4b'\	.	.	.	4g/	.	(8eee'\L	.
.	.	.	.	.	.	8ggg'\J)	[[
*clefG2	*	*	*	*	*	*	*
=84	=84	=84	=84	=84	=84	=84	=84
!!LO:LB:g=original
(>(>4qqb/	.	.	.	.	.	.	.
2gg\)	.	2.B/_	f	(4g/	.	(4bbb\	f
.	.	.	.	4b/	.	4eeee\)	.
*	*	*	*	*	*	*X8va	*
!	!	!	!	!	!	!LO:TX:a:t=loco	!
8ff#\L	.	.	.	8a/L	.	([4B/	.
8ee\J)	.	.	.	8g/J)	.	.	.
=85	=85	=85	=85	=85	=85	=85	=85
2.dd#Xt\	.	2.B/]	>	(2.f#/	>	16B/LL]	.
.	.	.	.	.	.	16d#X/	<
.	.	.	.	.	.	16f#/	.
.	.	.	.	.	.	16b/JJ	.
.	.	.	.	.	.	16dd#X\LL	.
.	.	.	]	.	]	16ff#\	.
.	.	.	.	.	.	16aa\)	.
.	.	.	.	.	.	16bb\JJ	.
.	.	.	.	.	.	(8.ccc^<\L	[
.	.	.	.	.	.	16bb\Jk)	.
(16qqcc##X/LL	.	.	.	.	.	.	.
16qqdd#/JJ)	.	.	.	.	.	.	.
=86	=86	=86	=86	=86	=86	=86	=86
4ee\	.	4E/	.	4g/)	p	4eee\	.
(4.ffn^<\	.	(>2G#X/	.	(>2d/ 2B^>/	.	4r	.
.	.	.	.	.	.	4r	.
8ee\)	.	.	.	.	.	.	.
=87	=87	=87	=87	=87	=87	=87	=87
(8.ee\L	.	2A/	<	[2.c/	<	4r	.
16aa\Jk)	.	.	.	.	.	.	.
(8.ccc\L	>	.	[>	.	[>	([2aa\	>
16bb\Jk	]]	.	.	.	.	.	.
16aa\LL	.	4Gn/	]	.	]	.	.
16gg\	.	.	.	.	.	.	.
16ff#\	.	.	.	.	.	.	.
16ee\JJ	.	.	.	.	.	.	]]
=88	=88	=88	=88	=88	=88	=88	=88
4dd\)	.	4F#/)	.	4c/])	]	16aa\LL]	.
.	.	.	.	.	.	16dd\)	.
.	.	.	.	.	.	16ccc'\	.
.	.	.	.	.	.	16bb'\JJ	.
4r	.	4r	.	4r	.	16aa'\LL	.
.	.	.	.	.	.	16gg'\	.
.	.	.	.	.	.	16ff#'\	.
.	.	.	.	.	.	16ee'\JJ	.
4r	.	4r	.	4r	.	(16dd\LL	.
.	.	.	.	.	.	16dd#X\	.
.	.	.	.	.	.	16ee\	.
.	.	.	.	.	.	16cc\JJ)	.
*clefF4	*	*	*	*	*	*	*
=89	=89	=89	=89	=89	=89	=89	=89
!	!	!	!	!LO:TX:b:i:t=dol&colon;	!	!	!
8G\L	p	8B/L	.	2gg^<\	p	(16b\LL	p
.	.	.	.	.	.	16dd\)	.
8G\	.	8B/	.	.	.	(16ee\	.
.	.	.	<	.	.	16dd\JJ)	<
8G\	.	8B/	.	.	.	(16cc#X\LL	.
.	.	.	.	.	.	16dd\)	.
8G\	.	8B/	.	.	.	(16dd\	.
.	.	.	.	.	.	16gg\JJ)	.
8G\	.	8B/	.	(8.b\L	.	(16gg\LL	.
.	.	.	.	.	.	16bb\)	.
8G\J	.	8B/J	[[	.	.	(16bb\	.
.	.	.	.	16cc\Jk)	.	16ddd\JJ)	.
=90	=90	=90	=90	=90	=90	=90	=90
8F#\L	.	8A/L	>	4dd\	.	(16ddd\LL	[
.	.	.	.	.	.	16ccc\)	.
8F#\	.	8A/	.	.	.	(16ccc\	>
.	.	.	.	.	.	16aa\JJ)	.
8F#\	.	8A/	.	2d^>/	.	(16aa\LL	.
.	.	.	.	.	.	16ff#\)	.
8F#\	.	8A/	.	.	.	(16ff#\	.
.	.	.	.	.	.	16dd\JJ)	.
8F#\	.	8A/	.	.	.	(16dd\LL	.
.	.	.	.	.	.	16ee\)	.
8F#\J	.	8A/J	]]	.	.	(16ee\	.
.	.	.	.	.	.	16cc\JJ)	]]
=91	=91	=91	=91	=91	=91	=91	=91
8G\L	.	8B/L	.	2gg^<\	.	(16b\LL	p
.	.	.	.	.	.	16dd\)	.
8G\	.	8B/	.	.	.	(16ee\	<
.	.	.	<	.	.	16dd\JJ)	.
8G\	.	8B/	.	.	.	(16cc#X\LL	.
.	.	.	.	.	.	16dd\)	.
8G\	.	8B/	.	.	.	(16dd\	.
.	.	.	.	.	.	16gg\JJ)	.
8G\	.	8B/	.	(8.b\L	.	(16gg\LL	.
.	.	.	.	.	.	16bb\)	.
8G\J	.	8B/J	[[	.	.	(16bb\	.
.	.	.	.	16cc\Jk)	.	16ddd\JJ)	[
=92	=92	=92	=92	=92	=92	=92	=92
8F#\L	.	8A/L	.	4dd\	.	(16ddd\LL	.
.	.	.	.	.	.	16ccc\)	>
8F#\	.	8A/	>	.	.	(16ccc\	.
.	.	.	.	.	.	16aa\JJ)	.
8F#\	.	8A/	.	2d^>/	.	(16aa\LL	.
.	.	.	.	.	.	16ff#\)	.
8F#\	.	8A/	.	.	.	(16ff#\	.
.	.	.	.	.	.	16dd\JJ)	.
8F#\	.	8A/	.	.	.	(16dd\LL	.
.	.	.	.	.	.	16ee\)	.
8F#\J	.	8A/J	]]	.	.	(16ee\	.
.	.	.	.	.	.	16cc\JJ)	]
=93	=93	=93	=93	=93	=93	=93	=93
8G\L	.	8B/L	p	8d/L	.	(16b\LL	p
.	.	.	.	.	.	16dd\)	.
8G\	.	8B/	.	8d/	.	16ee'\	.
.	.	.	.	.	.	16dd'\JJ	.
8G\	.	8B/	.	8d/	.	(16cc#X\LL	.
.	.	.	.	.	.	16dd\)	.
8G\J	.	8B/J	.	8d/	.	16gg'\	.
.	.	.	.	.	.	16bb'\JJ	.
8F#\L	.	8c/L	.	8d/	.	16aa'\LL	.
.	.	.	.	.	.	16dd'\	.
8F#\J	.	8A/J	.	8d/J	.	16ddd'\	.
.	.	.	.	.	.	16cccn'\JJ	.
=94	=94	=94	=94	=94	=94	=94	=94
!!LO:PB:g=original
*Xtremolo	*	*	*	*	*	*	*
8G\L	.	8B/	.	8d/L	.	(16bb\LL	.
.	.	.	.	.	.	16ccc\)	.
8F#^\	.	4B^/	.	8d#X^>/	.	(16bb'^<\	.
.	.	.	.	.	.	16aa'\JJ)	.
8E\	.	.	.	8e/	.	(16gg\LL	.
.	.	.	.	.	.	16aa\)	.
8D^\J	.	4G^/	.	8B^>/	.	(16gg'^<\	.
.	.	.	.	.	.	16ffn'\JJ)	.
8C#X/L	.	.	.	8c/	.	(16ee\LL	.
.	.	.	.	.	.	16ff\)	.
8BB^>/J	.	(8G#X^/	.	(8e^>/J	.	(16ee'^<\	.
.	.	.	.	.	.	16dd'\JJ)	.
=95	=95	=95	=95	=95	=95	=95	=95
*	*	*Xtremolo	*	*Xtremolo	*	*	*
8AA/L	.	8A/L)	.	8e/L)	.	(16cc\LL	.
.	.	.	.	.	.	16ee\)	.
!	!	!LO:TX:t=poco cres-:problem:dynamics with extention lines	!LO:HP:b:t=poco cres	!	!	!LO:TX:t=poco cres-:problem:dynamics with extention lines	!LO:HP:b:t=poco cres
8A\J	.	8c/J	<	8e/J	.	16ffn'\	<
.	.	.	.	.	.	16ee'\JJ	.
*	*	*	*	*tremolo	*	*	*
8A\L	.	8c\L	.	8e/L	.	(16dd#X\LL	.
.	.	.	.	.	.	16ee\)	.
8A\	.	8c\	.	8e/	.	16aa'\	.
.	.	.	.	.	.	16ccc'\JJ	.
8G#X\	.	8d\	.	8e/	.	16bb'\LL	.
.	.	.	.	.	.	16ee'\	.
8G#\J	.	8B\J	.	8e/J	.	16eee'\	.
.	.	.	.	.	.	16ddd'\JJ	.
=96	=96	=96	=96	=96	=96	=96	=96
8A\L	.	8c\	.	8e/L	.	(16ccc\LL	.
.	.	.	.	.	.	16ddd\)	.
8Gn^\	.	4c^\	.	8e^>/	.	(16ccc^<'\	.
.	.	.	.	.	.	16bb'\JJ)	.
8Fn\	.	.	.	8fn/	.	(16aa\LL	.
.	.	.	.	.	.	16bb\)	.
8E^\	.	[8A^>/	.	8c#X^>/J	.	(16aa'^<\	.
.	.	.	.	.	.	16gg'\JJ)	.
8D\	.	4A/_	.	8d/	.	(16ffn\LL	.
.	.	.	.	.	.	16gg\)	.
8C^\J	.	.	.	8r	.	(16ff'^<\	.
.	.	.	[[	.	.	16ee'\JJ)	[[
=97	=97	=97	=97	=97	=97	=97	=97
2BB/	.	2A/]	f	2.f#X/	.	8dd#X'\L	f
.	.	.	.	.	.	16b'\L	.
.	.	.	.	.	.	16dd#'\JJ	.
.	.	.	.	.	.	16ff#'\LL	.
.	.	.	.	.	.	16bb'\	.
.	.	.	.	.	.	16ddd#X'\	.
.	.	.	.	.	.	16fff#'\JJ	.
4D#X\	.	[4B/	.	.	.	(8.bbb^<\L	.
.	.	.	.	.	.	16aaa\Jk)	.
=98	=98	=98	=98	=98	=98	=98	=98
8E\L	.	4.B/]	.	8e/L	.	(16aaa\LL	.
.	.	.	<	.	.	16ggg\)	<
8F#\	.	.	.	8d#X/J	.	(16ggg\	.
.	.	.	.	.	.	16fff#\JJ)	.
8G\	.	.	.	4.e/	.	(16fff#\LL	.
.	.	.	.	.	.	16eee\)	.
8G#X\	.	8B/L	.	.	.	(16eee\	.
.	.	.	.	.	.	16ddd\JJ)	.
8A\	.	8c/	.	.	.	(16ddd\LL	.
.	.	.	.	.	.	16ccc\)	.
8B\J	.	8d/J	[[	8g#X/	.	(16ccc\	[
.	.	.	.	.	.	16bb\JJ)	.
=99	=99	=99	=99	=99	=99	=99	=99
4c\	.	4e\	.	4a/	.	(16bb\LL	.
.	.	.	.	.	.	16aa\	.
.	.	.	.	.	.	16gg#X\	>
.	.	.	>	.	.	16aa\JJ	.
2C/	.	2e\	.	2a/	.	16bb\LL	.
.	.	.	.	.	.	16aa\)	.
.	.	.	.	.	.	16ccc'\	.
.	.	.	.	.	.	16bb'\JJ	.
.	.	.	.	.	.	(16ddd\LL	.
.	.	.	.	.	.	16ccc\	.
.	.	.	]	.	.	16ee\	.
.	.	.	.	.	.	16aa\JJ)	]]
=100	=100	=100	=100	=100	=100	=100	=100
2D\	.	(4d\	p	2b/ 2d/	.	(16gg\LL	p
.	.	.	.	.	.	16dd\)	.
.	.	.	.	.	.	16bb'\	.
.	.	.	.	.	.	16aa'\JJ	.
.	.	4g\	.	.	.	16gg'\LL	.
.	.	.	.	.	.	16ff#'\	.
.	.	.	.	.	.	16ee'\	.
.	.	.	.	.	.	16dd'\JJ	.
4D\	.	4f#t\	.	4cc/ 4d/	.	(16cc#X\LL	.
.	.	.	.	.	.	16dd\	.
.	.	.	.	.	.	16ccn\	.
.	.	.	.	.	.	16a\JJ)	.
=101	=101	=101	=101	=101	=101	=101	=101
8GG/L	.	8g\L)	.	8b/L 8d/	.	(16g\LL	.
.	.	.	.	.	.	16dd\)	.
8G\J	.	8B\J	.	8d/J	.	16ee'\	.
.	.	.	.	.	.	16dd'\JJ	.
*tremolo	*	*tremolo	*	*	*	*	*
8G\L	.	8B/L	.	8d/L	.	(16cc#X\LL	.
.	.	.	.	.	.	16dd\)	.
8G\J	.	8B/J	.	8d/	.	16gg'\	.
.	.	.	.	.	.	16bb'\JJ	.
8F#\L	.	8c/L	.	8d/	.	(16aa\LL	.
.	.	.	.	.	.	16dd\)	.
8F#\J	.	8A/J	.	8d/J	.	16ddd'\	.
.	.	.	.	.	.	16cccn'\JJ	.
=102	=102	=102	=102	=102	=102	=102	=102
8G\L	.	8B/L	.	8d/L	.	(16bb\LL	.
.	.	.	.	.	.	16dd\)	.
8G\	.	8B/	.	8d/	.	16ee'\	.
.	.	.	.	.	.	16dd'\JJ	.
8G\	.	8B/	.	8d/	.	(16cc#X\LL	.
.	.	.	.	.	.	16dd\)	.
8G\J	.	8B/J	.	8d/	.	16gg'\	.
.	.	.	.	.	.	16bb'\JJ	.
8F#\L	.	8c/L	.	8d/	.	(16aa\LL	.
.	.	.	.	.	.	16dd\)	.
8F#\J	.	8A/J	.	8d/J	.	16ddd'\	.
.	.	.	.	.	.	16cccn'\JJ	.
=103	=103	=103	=103	=103	=103	=103	=103
!!LO:LB:g=original
!	!	!LO:TX:t=cres-:problem:dynamics with extention lines	!LO:HP:b:t=cres	!	!	!	!
8G\L	.	8B\L	<	8d/	.	16bb'\LL	.
.	.	.	.	.	.	(16b\	.
8D#X^\	.	8f#^\	.	4b^/	.	16bb\	sf
.	.	.	.	.	.	16aa\JJ)	.
8E\	.	8e\	.	.	.	16gg'\LL	.
.	.	.	.	.	.	(16g\	.
8BB^\	.	8d^\	.	4g^/	.	16gg\	sf
.	.	.	.	.	.	16ffn\JJ)	.
!	!	!	!	!	!	!LO:TX:a:t=P:problem:mixedbeam	!
8C\	.	8c\	.	.	.	16ee'\LL	.
.	.	.	.	.	.	(16e/	.
8BB^\J	.	[8e^\J	[[	8g#X^/	.	16ee\	sf
.	.	.	.	.	.	16dd\JJ)	.
=104	=104	=104	=104	=104	=104	=104	=104
2.AA/	.	2.e\]	f	2a/	.	8cc#X\L	f
.	.	.	.	.	.	16ggg'\L	.
.	.	.	.	.	.	16eee'\JJ	.
.	.	.	.	.	.	16ccc#X'\LL	.
.	.	.	.	.	.	16aa'\	.
.	.	.	.	.	.	16gg'\	.
.	.	.	.	.	.	16ee'\JJ	.
.	.	.	.	4gn/	.	4cc#t\	.
=105	=105	=105	=105	=105	=105	=105	=105
2.D\	.	8d\L	.	(>2.f#/	.	4ccn\	.
.	.	(16cc\L	.	.	.	.	.
.	.	16b\JJ	.	.	.	.	.
.	.	16a\LL	.	.	.	4.aa\o	.
.	.	16g\	.	.	.	.	.
.	.	16f#\	.	.	.	.	.
.	.	16e\JJ	.	.	.	.	.
.	.	16d\LL	.	.	.	.	.
.	.	16c\	.	.	.	.	.
.	.	16B\	.	.	.	(8cc\	.
.	.	16A\JJ	.	.	.	.	.
=106	=106	=106	=106	=106	=106	=106	=106
4G\	.	8G/)	.	4g/)	<	8b\)	.
.	.	4g^<\	<	.	.	4gg^<\	.
8r	.	.	.	8r	.	.	.
(8GG/L	.	4g^<\	.	(8b\L	.	4gg^<\	.
8AA/	.	.	.	8cc\	.	.	.
8AA#X/J	.	[8g^<\	[[	8cc#X\J	[[	[8gg^<\	.
=107	=107	=107	=107	=107	=107	=107	=107
4BB/)	.	4g\]	f	4dd\)	f	4gg\]	f
2BB-X/	.	(2fn\ [2B-X\	fz	(2dd\	fz	(16aa-X\LL	.
.	.	.	.	.	.	16ffn\)	.
.	.	.	.	.	.	16dd'\	.
.	.	.	.	.	.	16b-X'\JJ	.
.	.	.	.	.	.	(16a-X/LL	.
.	.	.	.	.	.	16fn/	.
.	.	.	.	.	.	16b-/	.
.	.	.	.	.	.	16a-/JJ)	.
=108	=108	=108	=108	=108	=108	=108	=108
4E-X\	.	4e-X\ 4B-\])	.	4ee-X\)	.	8g/L	.
.	.	.	.	.	.	16G/L	.
.	.	.	.	.	.	16B-X/JJ	<
4r	.	4r	.	4r	.	(16e-X/LL	.
.	.	.	.	.	.	16g/)	.
.	.	.	.	.	.	16b-X'/	.
.	.	.	.	.	.	16ee-X'/JJ	.
4r	.	4r	.	4r	.	(16gg\LL	.
.	.	.	.	.	.	16bb-X\)	.
*	*	*	*	*	*	*8va	*
.	.	.	.	.	.	16eee-yX\	.
.	.	.	.	.	.	16ggg\JJ	[[
=109	=109	=109	=109	=109	=109	=109	=109
[2.EE-X/	.	8B-X/L	fz	8g/L	fz >	2.bbb-X\	fz >
.	.	8B-/	.	8g/	.	.	.
.	.	8B-/	>	8g/	.	.	.
.	.	8B-/	.	8g/	.	.	.
.	.	8B-/	.	8g/	.	.	.
.	.	8B-/J	]]	8g/J	]]	.	]]
*	*	*	*	*	*	*X8va	*
=110	=110	=110	=110	=110	=110	=110	=110
*Xtremolo	*	*rep	*	*	*	*	*
!	!	!	!	!	!	!LO:TX:a:t=loco	!
8EE-/L]	.	8B-X/L	p	8g/L	p	2.c#X^t/	.
8EE-X/J	.	8B-/	.	8g/	.	.	.
*tremolo	*	*	*	*	*	*	*
8EE-/L	.	8B-/	.	8g/	.	.	.
8EE-/	.	8B-/	.	8g/	.	.	.
8EE-/	.	8B-/	.	8g/	.	.	.
8EE-/J	.	8B-/J	.	8g/J	.	.	.
.	.	.	.	.	.	(16qqB#X/LL	.
.	.	.	.	.	.	16qqc#/JJ)	.
*	*	*Xrep	*	*	*	*	*
=111	=111	=111	=111	=111	=111	=111	=111
[2.DD/	.	([2.Bn/	<[	(>[>2.g/	.	(8d/L	.
.	.	.	.	.	.	16e/L	.
.	.	.	.	.	.	16f#/JJ	<
.	.	.	.	.	.	16g/LL	.
.	.	.	.	.	.	16g#X/	.
.	.	.	.	.	.	16a/	.
.	.	.	.	.	.	16a#X/JJ	.
.	.	.	.	.	.	16b\LL	.
.	.	.	.	.	.	16cc\	.
.	.	.	.	.	.	16cc#X\	.
.	.	.	.	.	.	16dd\JJ	.
=112	=112	=112	=112	=112	=112	=112	=112
2DD/]	.	2B/]	.	2g/]	.	16dd#X\LL	.
.	.	.	>	.	.	16ee\	.
.	.	.	.	.	.	16ee#X\	.
.	.	.	.	.	.	16ff#\JJ	.
.	.	.	.	.	.	16gg\LL	.
.	.	.	.	.	.	16gg#X\	.
.	.	.	.	.	.	16aa\	.
.	.	.	.	.	.	16aa#X\JJ	.
4D\	.	4c\)	]]	4f#/)	.	8.bb^<\L	.
.	.	.	.	.	.	16aan\Jk)	[[
=113	=113	=113	=113	=113	=113	=113	=113
!!LO:LB:g=original
4GG/	.	4B/	p	4g/	.	4gg\	p
4r	.	4g\	.	4r	.	4r	.
4r	.	(8.B\L	.	4r	.	4r	.
.	.	16c\Jk)	.	.	.	.	.
=114	=114	=114	=114	=114	=114	=114	=114
2.r	.	4d\	.	2.r	.	2.r	.
.	.	(>4G'/	<	.	.	.	.
.	.	4A'/)	[[	.	.	.	.
=115	=115	=115	=115	=115	=115	=115	=115
2.r	.	(2B\	>	4r	.	2.r	.
.	.	.	.	(4b\	>	.	.
.	.	8c#X\L	]	8a#X\L	]]	.	.
.	.	8d#X\J	.	8an\J	.	.	.
=116	=116	=116	=116	=116	=116	=116	=116
4r	.	4e\)	.	4g/)	.	4r	.
2B^\	.	4r	.	(>2g#X^/	.	(4ffn^<\	.
.	.	4r	.	.	.	8.ee\L	.
.	.	.	.	.	.	16dd\Jk)	.
=117	=117	=117	=117	=117	=117	=117	=117
!	!LO:DY:a	!	!	!	!	!	!
8.A\L	p	8.r	.	8.a/L)	.	(8.cc\L	.
.	.	.	.	.	.	.	p
16G#X\Jk	.	(16d\	.	16e/Jk	.	16b\Jk	.
4A\	.	4c\)	.	4e/	.	4a\)	.
(4D\	.	(4c\	.	4f#/	.	(4dd\	.
=118	=118	=118	=118	=118	=118	=118	=118
4G\)	.	4B\)	.	4g/	.	4g/)	.
4r	.	4r	.	4gg\	.	4r	.
4r	.	4r	.	8.b\L	.	4r	.
.	.	.	.	16cc\Jk	.	.	.
=119	=119	=119	=119	=119	=119	=119	=119
4r	.	4r	.	4dd\	.	2.r	.
4r	.	4r	.	(4g'\	<	.	.
4C/	.	8.f#\L	.	4a'\	[[	.	.
.	.	16e\Jk	.	.	.	.	.
=120	=120	=120	=120	=120	=120	=120	=120
[2.BB/	.	[2.d#X\	.	[2.b\)	.	4r	.
.	.	.	.	.	.	4bb\	>
.	.	.	.	.	.	(8.dd#X\L	.
.	.	.	.	.	.	16ee\Jk)	]]
=121	=121	=121	=121	=121	=121	=121	=121
2BB/]	.	2d#\]	.	2.b\_	.	(8.ff#\L	.
.	.	.	.	.	.	16gg\Jk)	<
.	.	.	.	.	.	2aa\	.
8.C#X/L	.	(8.e\L	<	.	.	.	.
16D#X/Jk	.	16f#\Jk)	.	.	.	.	.
=122	=122	=122	=122	=122	=122	=122	=122
(8E\L	.	(8g\L	.	2b\]	.	(8gg\L	.
8F#\	.	8d#X\J	.	.	.	8ff#\	.
8G\	.	[2e\	.	.	.	8ee\	.
8G#X\	.	.	.	.	.	8dd\	.
8A\	.	.	.	8a\L	.	8cc\	.
8B\J	.	.	.	8g#X\J	.	8b\J)	[[
=123	=123	=123	=123	=123	=123	=123	=123
4c\)	.	2e\])	[	2a/	.	(2a\	.
4C/	.	.	.	.	.	.	.
4C#X/	.	(4e\	.	[>4gn/	.	4a#X\	.
=124	=124	=124	=124	=124	=124	=124	=124
(8.D\L	.	4d\	.	2.g/_>	.	4b\	.
16Fn\Jk	.	.	.	.	.	.	.
4E\	.	4c\	.	.	.	4cc\	.
4E-X\)	.	4B-X\	.	.	.	4cc#X\)	.
.	.	.	>	.	.	.	.
=125	=125	=125	=125	=125	=125	=125	=125
2.D\	.	4Bn\	.	8.g/L]	.	(2dd\	>
.	.	.	.	16g#X/Jk	.	.	.
.	.	2c\)	]]	2a/	.	.	.
.	.	.	.	.	.	4f#/	]]
=126	=126	=126	=126	=126	=126	=126	=126
4GG/	.	8B\L	p	4gn/	.	4g/)	p
.	.	8d\J 8B\	.	.	.	.	.
*	*	*tremolo	*	*	*	*	*
(4G^\	.	8d\L 8B\	.	4r	.	4r	.
.	.	8d\ 8B\	.	.	.	.	.
8.BB/L	.	8d\ 8B\	.	4r	.	4r	.
.	.	8d\J 8B\	.	.	.	.	.
16C/Jk)	.	.	.	.	.	.	.
=127	=127	=127	=127	=127	=127	=127	=127
!!LO:LB:g=original
!	!	!	!	!	!	!LO:TX:i:b:t=dol&colon;	!
2.D\	.	8d\L 8c\	.	4r	.	(16dd\LL	.
.	.	.	.	.	.	16ccc\	>
.	.	8d\ 8c\	.	.	.	16bb\	.
.	.	.	.	.	.	16aa\JJ	.
.	.	8d\ 8c\	.	(>4cc^<\	.	16gg\LL	.
.	.	.	.	.	.	16ff#\	.
.	.	8d\ 8c\	.	.	.	16ee\	.
.	.	.	.	.	.	16dd\JJ	.
.	.	8d\ 8c\	.	8.e/L	.	16cc#X\LL	.
.	.	.	.	.	.	16dd\	]
.	.	8d\J 8c\	.	.	.	16ccn\	.
.	.	.	.	16f#/Jk	.	16a\JJ)	.
=128	=128	=128	=128	=128	=128	=128	=128
4GG/	.	8d\L 8B\	.	4g/)	.	4g/	.
.	.	8d\ 8B\	.	.	.	.	.
(4G^<\	.	8d\ 8B\	.	4r	.	4r	.
.	.	8d\ 8B\	.	.	.	.	.
8.BB\L	.	8d\ 8B\	.	4r	.	4r	.
.	.	8d\J 8B\	.	.	.	.	.
16C/Jk)	.	.	.	.	.	.	.
=129	=129	=129	=129	=129	=129	=129	=129
.	.	.	.	.	.	(<8qdd/	>
2.D\	.	8d\L 8c\	.	4r	.	(16ddd\LL)	.
.	.	.	.	.	.	16ccc#X\	.
.	.	8d\ 8c\	.	.	.	16cccn\	.
.	.	.	.	.	.	16bb\JJ	.
.	.	8d\ 8c\	.	(4cc^<\	.	16aa\LL	.
.	.	.	.	.	.	16gg\	.
.	.	8d\ 8c\	.	.	.	16ff#\	.
.	.	.	.	.	.	16ee\JJ	.
.	.	8d\ 8c\	.	8.e/L	.	16dd\LL	.
.	.	.	.	.	.	16cc#X\	.
.	.	8d\J 8c\	.	.	.	16ccn\	.
.	.	.	.	16f#/Jk	.	16a\JJ)	]]
=130	=130	=130	=130	=130	=130	=130	=130
4GG/	f	4d\ 4B\	.	4g/)	.	4g/	.
4G\	.	4r	.	4r	.	4r	.
(8.BB/L	.	4r	.	4r	.	4r	.
16C/Jk)	.	.	.	.	.	.	.
=131	=131	=131	=131	=131	=131	=131	=131
!LO:TX:t=1a	!	!	!	!	!	!	!
*>A1	*	*>A1	*	*>A1	*	*>A1	*
!LO:TX:a:problem:text with extention lines:t=riten:dur=6q:ext=cd	!	!	!	!	!	!	!
4D\	.	4r	.	4r	.	4r	.
!	!	!LO:TX:a:problem:text with extention lines:t=riten:dur=5q:ext=cd	!	!	!	!	!
4GG^>/	.	4r	.	4r	f	4r	.
!	!	!	!	!LO:TX:a:problem:text with extention lines:t=riten:dur=4q:ext=cd	!	!	!
4AA^>/	.	4A/	.	4c/	.	(8.f#/L	f
.	.	.	.	.	.	16e/Jk)	.
=132	=132	=132	=132	=132	=132	=132	=132
!	!LO:DY:a	!	!	!	!	!	!
[2.BB/	f	4F#/	.	4B/	.	4.d#X/	.
.	.	[2f#\	.	[2a/ [2B/	.	.	.
.	.	.	.	.	.	16d#/LL	.
.	.	.	.	.	.	16f#/JJ	.
.	.	.	.	.	.	16b\LL	.
.	.	.	.	.	.	16dd#X\	.
.	.	.	.	.	.	16ff#\	.
.	.	.	.	.	.	16bb\JJ	.
=133	=133	=133	=133	=133	=133	=133	=133
2BB/];	<	2f#\];	<	2a/] 2B;/]	.	2ddd#X;\	.
.	[ >	.	[ >	.	.	.	.
4r;	]	4r;	]	4r;	.	4r;	.
=134:|!	=134:|!	=134:|!	=134:|!	=134:|!	=134:|!	=134:|!	=134:|!
!LO:TX:t=2a	!	!	!	!	!	!	!
*>A2	*	*>A2	*	*>A2	*	*>A2	*
*	*above	*	*	*	*	*	*
4D\	.	2.r	.	2.r	.	2.r	.
.	<	.	.	.	.	.	.
4GG/	.	.	.	.	.	.	.
4AAT/	.	.	.	.	.	.	.
.	[	.	.	.	.	.	.
16qqGG/LL	.	.	.	.	.	.	.
16qqAA/JJ	.	.	.	.	.	.	.
.	.	.	.	.	.	.	.
=135	=135	=135	=135	=135	=135	=135	=135
*>B	*	*>B	*	*>B	*	*>B	*
[2.BB-X/	f	4r	.	2.r	.	4r	.
.	.	4r	.	.	.	4bb-X\	f
.	.	(8.B-X/L	f	.	.	8.dd\L	.
.	.	16c/Jk)	.	.	.	16ee-X\Jk	.
=136	=136	=136	=136	=136	=136	=136	=136
*	*below	*	*	*	*	*	*
2.BB-/_	>]	(8.d\L	.	4r	.	8.ffn\L	>
.	.	.	>	.	.	.	.
.	.	16e-X\Jk)	.	.	.	16gg\Jk	.
.	.	2fn\	.	8r	>	4aa-X\	.
.	.	.	.	(8cc-\L	.	.	.
.	.	.	.	8b-X\	.	4dd\	]]
.	.	.	]]	8a-X\J	]	.	.
=137	=137	=137	=137	=137	=137	=137	=137
2.BB-/_	p	(4B-X\	p	4g/)	.	8.ee-X\L	p
.	.	.	.	.	.	16ffn\Jk	.
.	.	4g\	.	(2b-X\	.	4ee-\	.
.	.	4fn\	.	.	.	([4dd\	.
=138	=138	=138	=138	=138	=138	=138	=138
2.BB-/_	.	2en\	.	2g/	.	8dd\L]	.
.	.	.	.	.	.	8cc\	.
.	.	.	.	.	.	8bn\	.
.	.	.	.	.	.	8cc\	.
.	.	4e-X\	.	4an/	.	8dd\	.
.	.	.	.	.	.	8cc\J	.
=139	=139	=139	=139	=139	=139	=139	=139
!!LO:PB:g=original	!	!	!	!	!	!	!
!	!	!	!	!LO:TX:t=P:problem:zakończenie łuku na dole, ołówkiem	!	!	!
4BB-/]	.	[2.d\)	.	[2.f#/)	<	2.b-X\)	<
(4B-X\	<	.	.	.	.	.	.
4A\	.	.	.	.	.	.	.
=140	=140	=140	=140	=140	=140	=140	=140
4A-X\	[[	2.d\]	.	2.f#/]	[[	2.bn\	[[
4G\)	.	.	.	.	.	.	.
4GG/	.	.	.	.	.	.	.
=141	=141	=141	=141	=141	=141	=141	=141
[2.C/	f	4c\	.	4en/	f	4cc\	f
.	.	4r	.	4r	.	4ccc\	.
.	.	8.c\L	.	4r	.	8.een\L	.
.	.	16d\Jk	.	.	.	16ffn\Jk	.
=142	=142	=142	=142	=142	=142	=142	=142
2.C/]	.	8.e\L	.	4r	.	8.gg\L	.
.	.	16fn\Jk	.	.	.	16aa-X\Jk	.
.	.	2g\	.	8r	.	4bb-X\	.
.	.	.	.	(8dd-X\L	.	.	.
.	.	.	.	8cc\	.	4ee\	.
.	.	.	.	8b-X\J)	.	.	.
=143	=143	=143	=143	=143	=143	=143	=143
4Fn\	ff	4fn\	ff	4a-X\	.	4ffn\	ff
!	!	!LO:TX:b:i:t=con fuoco	!	!	!	!LO:TX:b:i:t=con fuoco	!
4fn\	.	4ffn\	.	4aa-X\ 4cc\	.	4aaa-X\	.
.	.	.	.	.	.	.	.
(8.FFn/L	.	8.A-X/L	.	8.c/L	.	8.a-X/L	.
16EE-X/Jk)	.	16A-/Jk	.	16c/Jk	.	16g-X/Jk	.
=144	=144	=144	=144	=144	=144	=144	=144
4DD-X/	.	4A-X/	.	4d-X/	.	4fn/	.
4d-X\	.	4dd-X\	.	4ffn\ 4a-X\	.	4fffn\	.
8.D-X\L	.	8.Fn/L	.	8.A-X/L	.	8.f/L	.
16C\Jk	.	16F/Jk	.	16An/Jk	.	16e-X/Jk	.
=145	=145	=145	=145	=145	=145	=145	=145
4BB-X/	.	4Fn/	.	4B-X/	.	4d-X/	.
*clefG2	*	*	*	*	*	*	*
.	f	.	f	.	.	.	f
2bb-X^<\	.	2dd-X^<\	.	2ffn\	.	2ddd-X^<\	.
=146	=146	=146	=146	=146	=146	=146	=146
4r	.	4r	.	4r	.	4r	.
!	!LO:DY:rj	!	!LO:DY:rj	!	!	!	!LO:DY:rj
[2gg-X^<\	mf	[2b-X^<\	mf	[2dd-X\	.	[2bb-X^<\	mf
=147	=147	=147	=147	=147	=147	=147	=147
4gg-\]	.	4b-\]	.	4dd-\]	.	4bb-\]	.
*clefF4	*	*	*	*	*	*	*
(4G-X'\	pp	(4B-X'/	pp	(4g-X'/	.	(4dd-X'\	pp
4G-'\)	.	4B-'/)	.	4g-'/)	.	4dd-'\)	.
=148	=148	=148	=148	=148	=148	=148	=148
*	*above	*	*	*	*	*	*
!	!LO:DY:rj	!	!	!	!LO:DY:rj	!	!LO:DY:rj
2.G-X\ 2.C-X^\	f	2.c-X\	.	2.g-X^/	f	2.ee-X^\	f
=149	=149	=149	=149	=149	=149	=149	=149
4r	.	4r	.	4r	.	4r	.
.	pp	.	.	.	.	.	pp
(4D-X'\	.	(>4A-X'/	.	(>4f#'/	.	4dd-X\	.
!	!	!	!	!	!	!LO:TX:b:i:t=ma espres.	!
4D-'\	.	4A-'/	.	4f#'/	.	(8.cc-X\L	.
.	.	.	.	.	.	16cc-\Jk)	.
*	*below	*	*	*	*	*	*
=150	=150	=150	=150	=150	=150	=150	=150
4Dn'\)	.	4A-X'/)	.	4f#'/)	.	4b-X\	.
(4B-X\	.	4r	.	4r	.	4r	.
8.Cn\L	.	4r	.	4r	.	4r	.
16D\Jk)	.	.	.	.	.	.	.
=151	=151	=151	=151	=151	=151	=151	=151
4E-X\	.	4r	.	4r	.	4r	.
4E-\	.	4B-X/	.	4g-X/	.	4ee-X\	.
4E-\	.	4B-/	.	4g-/	.	(8.dd-X'\L	.
.	.	.	.	.	.	16dd-'\Jk)	.
=152	=152	=152	=152	=152	=152	=152	=152
4En\	.	4B-X/	.	4gn/	.	4ccn\	.
(4c\	.	4r	.	4r	.	4r	.
8.D\L	.	4r	.	4r	.	4r	.
16E\Jk	.	.	.	.	.	.	.
=153	=153	=153	=153	=153	=153	=153	=153
[2.Fn\)	<[	4r	.	4r	.	4r	.
.	.	4c\	.	4cc\	<	[2aa-X\ [2a-X\	<
.	.	(8.d-X\L	.	(8.dd-X\L	.	.	[[
.	.	16d-\Jk)	.	16dd-\Jk)	[	.	.
=154	=154	=154	=154	=154	=154	=154	=154
!!LO:LB:g=original
!LO:TX:t=poco cres:problem:dynamics with extention lines	!LO:HP:t=poco cres:ext=cd	!	!	!	!	!	!
4F\]	<	4d-X\	.	4dd-X\	.	4aa-\] 4a-\]	.
(4Fn\	.	4r	.	4r	.	4r	.
8.FFn/L	.	4r	.	4r	.	4r	.
16FF/Jk)	.	.	.	.	.	.	.
=155	=155	=155	=155	=155	=155	=155	=155
!	!	!LO:TX:t=cres:problem:dynamics with extention lines	!LO:HP:t=cres:ext=cd	!LO:TX:t=cres:problem:dynamics with extention lines	!LO:HP:t=cres:ext=cd	!LO:TX:t=cres:problem:dynamics with extention lines	!LO:HP:t=cres:ext=cd
[2.Fn\	.	4r	<	4r	<	4r	<
.	.	4d-X\	.	4dd-X\	.	[2aa-X\ [2a-X\	.
.	.	(8.d-\L	.	(8.dd-\L	.	.	.
.	.	16c\Jk	[[	16cc\Jk	[[	.	.
=156	=156	=156	=156	=156	=156	=156	=156
4F\]	.	4Bn/)	.	4bn\)	.	4aa-\] 4a-\]	.
4Fn\	.	4r	.	4r	.	4r	[
8.FFn/L	.	4r	.	4r	.	4r	.
16FF/Jk	[[	.	.	.	.	.	.
=157	=157	=157	=157	=157	=157	=157	=157
[2.Fn\	f	4r	f	4r	f	4r	.
!	!	!LO:TX:b:i:t=con paſsione	!	!LO:TX:b:i:t=con paſsione	!	!LO:TX:b:i:t=con paſsione	!LO:DY:rj
.	.	4d-X\	.	(4dd-X\	.	[2aa-X\ [2a-X^<\	f
.	.	4c\	.	4cc\	.	.	.
=158	=158	=158	=158	=158	=158	=158	=158
4F\]	.	4Bn\	.	4bn\)	.	4aa-\] 4a-\]	.
[2Fn\	.	4d-X\	.	(4dd-X\	.	[2aa-X\ [2a-X^<\	.
.	.	4c\	.	4cc\	.	.	.
=159	=159	=159	=159	=159	=159	=159	=159
4F\]	.	(4Bn\	.	4bn\)	.	4aa-\] 4a-\]	.
[2E#X\	.	4B\	.	(4ddn\	.	[2gg#X^<\	.
.	.	4c#X\	.	4cc#X\	.	.	.
=160	=160	=160	=160	=160	=160	=160	=160
2.E#\]	.	4d\)	.	4b\)	.	(2.gg#\]	.
.	.	(4B\	.	(4dd\	.	.	.
.	.	8.c#\L	.	8.cc#X\L	.	.	.
.	.	16d\Jk	.	16b\Jk)	.	.	.
=161	=161	=161	=161	=161	=161	=161	=161
[2.F#X\	.	2c#X\)	ff	2a#X/	ff	4ff#X\)	ff
.	.	.	.	.	.	[2fff#X\	.
.	.	(8.F#X/L	.	(>8.A#X/L	.	.	.
.	.	16G#X/Jk	.	16B/Jk	.	.	.
=162	=162	=162	=162	=162	=162	=162	=162
2.F#\_	.	8.A#/L	.	8.c#X/L	.	4fff#\_	.
.	.	16B/Jk	.	16d/Jk	.	.	.
!	!	!	!	!	!	!LO:TUP:a	!
.	.	2c#X\)	.	2e/)	.	(12fff#\L]	.
.	.	.	.	.	.	12eee\	.
.	.	.	.	.	.	12ccc#X\J	.
*	*	*	*	*	*	*Xtuplet	*
.	.	.	.	.	.	12aa#X\L	.
.	.	.	.	.	.	12gg\)	.
.	.	.	.	.	.	12ff#\J	.
=163	=163	=163	=163	=163	=163	=163	=163
*	*	*	*	*	*	*tuplet	*
!	!	!	!	!	!	!LO:TUP:a	!
2.F#\_	.	[2.B/	.	[2.d/	.	(12ff#\L	.
.	.	.	.	.	.	12ddd\	.
.	.	.	.	.	.	12aa#X\J	.
*	*	*	*	*	*	*Xtuplet	*
.	.	.	.	.	.	12bb\L	.
.	.	.	.	.	.	12ff#\	.
.	.	.	.	.	.	12dd\J	.
.	.	.	.	.	.	12b\L	.
.	.	.	.	.	.	12dd\	.
.	.	.	.	.	.	12f#\J)	.
=164	=164	=164	=164	=164	=164	=164	=164
*	*	*Xtuplet	*	*	*	*	*
2.F#\_	.	12B\L]	.	4d/]	.	2.e#X/	>]
.	.	(12dd\	>	.	.	.	.
.	.	12b\J	.	.	.	.	.
.	.	12g#X\L	.	[4B/	.	.	.
.	.	12e#X\	.	.	.	.	.
.	.	12d\J)	.	.	.	.	.
.	.	(12d\L	.	12B/L]	.	.	.
.	.	12c#X\	.	12c#X/	.	.	.
.	.	12B\J)	]]	12d/J	.	.	.
=165	=165	=165	=165	=165	=165	=165	=165
4F#\]	.	2A#X/	p	4c#X/	p	[2.f#/	p
4F#\	.	.	.	4r	.	.	.
8.AA#X/L	.	(8.e\L	.	4r	.	.	.
16BB/Jk	.	16d\Jk)	.	.	.	.	.
=166	=166	=166	=166	=166	=166	=166	=166
8.C#X\L	.	(8.c#X/L	.	(8.a#X\L	.	2f#/]	.
16D\Jk	.	16B/Jk	.	16b\Jk	.	.	.
2E\	.	2A#X/)	.	2cc#X\)	.	.	.
.	.	.	.	.	.	8.g/L	.
.	.	.	.	.	.	16f#/Jk	.
=167	=167	=167	=167	=167	=167	=167	=167
(8.D/L	.	(8.B\L	.	[2.b\	.	2f#/	.
16C#X/K	.	16c#X\Jk	.	.	.	.	.
8.BB/	.	[2d\	.	.	.	.	.
16C#/K	.	.	.	.	.	.	.
8.BB/	.	.	.	.	.	[4b\	.
16AA/Jk)	.	.	.	.	.	.	.
=168	=168	=168	=168	=168	=168	=168	=168
2.GG/	.	2d\_)	.	2.b\]	.	8.b\L]	.
.	.	.	.	.	.	16cc#X\K	.
.	.	.	.	.	.	8.dd\	.
.	.	.	.	.	.	16ee\Jk	.
.	.	8.d\L]	.	.	.	4ee#X\	.
.	.	16c#X\Jk	.	.	.	.	.
=169	=169	=169	=169	=169	=169	=169	=169
!!LO:LB:g=original
[2.FF#/	.	(4c#X\	<	(2a#X\	.	(2ff#\	<
.	.	4f#\	.	.	.	.	.
.	.	4g#X\	.	4b\	.	4ee#X\	.
=170	=170	=170	=170	=170	=170	=170	=170
.	.	.	[	.	.	.	.
2.FF#/]	.	4a#X\	.	4cc#X\	.	4een\	[
.	.	.	>	.	.	.	.
.	.	.	.	.	.	.	>
.	.	2f#\)	]]	2b\)	.	8.dd\L	.
.	.	.	.	.	.	16cc#X\Jk)	.
.	.	.	.	.	.	([4dd\	]
=171	=171	=171	=171	=171	=171	=171	=171
[2.F#\	.	(2e\	p	(>2g/	.	4dd\]	p
.	.	.	.	.	.	4cc#X\	.
.	.	4d\	.	8.f#/L	.	[4b\	.
.	.	.	.	16e#X/Jk	.	.	.
=172	=172	=172	=172	=172	=172	=172	=172
!	!	!LO:TX:t=dimin:problem:dynamics with extention lines	!LO:HP:t=dimin:ext=cd	!	!	!LO:TX:t=dimin:problem:dynamics with extention lines	!LO:HP:t=dimin:ext=cd
2.F#\]	.	2.c#X\)	>	2.en/	.	4b\]	>
.	.	.	.	.	.	8.a#X\L	.
.	.	.	.	.	.	16g#X\Jk	.
.	.	.	]]	.	.	4a#\	]]
=173	=173	=173	=173	=173	=173	=173	=173
*	*	*	*	*^	*	*	*
8BB/	.	8B\	pp	4d/)	2.B\	pp	4b\)	.
4B\	.	4d\	.	.	.	.	.	.
.	.	.	.	4r	.	.	4r	.
4B\	.	4d\	.	.	.	.	.	.
.	.	.	.	4r	.	.	4r	.
[8B\	.	[8d\	.	.	.	.	.	.
*	*	*	*	*v	*v	*	*	*
=174	=174	=174	=174	=174	=174	=174	=174
8B\L]	.	8d\L]	.	[2.b\	.	2.r	.
(8B\	.	(8d\	.	.	.	.	.
8c#X\)	.	8e\)	.	.	.	.	.
(8c#\	.	(8e\	.	.	.	.	.
8d\)	.	8f#\)	.	.	.	.	.
((8d\J	.	((8f#\J	.	.	.	.	.
=175	=175	=175	=175	=175	=175	=175	=175
4.e\)	.	4.g\)	.	4b\]	.	2.r	.
.	.	.	.	(8a#X\L	.	.	.
8d\L	.	8f#\L	.	8b\	.	.	.
8c#X\	.	8e\	.	8cc#X\	.	.	.
8B\J	.	8d\J)	.	8dd\J)	.	.	.
=176	=176	=176	=176	=176	=176	=176	=176
!	!	!	!	!	!	!	!LO:DY:rj
4A#X\)	.	4c#X\	.	(4.ee\	.	2.f#/	pp
2A#^<\	.	2c#^<\	.	.	.	.	.
.	.	.	.	8cc#X\L	.	.	.
.	.	.	.	8ff#\	.	.	.
.	.	.	.	8ee\J	.	.	.
=177	=177	=177	=177	=177	=177	=177	=177
(4.B\	.	(4.d\	.	4dd\)	.	[2.ff#\	.
.	.	.	.	4r	.	.	.
8A#X\L	>	8c#X\L	.	.	.	.	.
.	.	.	>	.	.	.	.
8d\	.	8f#\	.	4r	.	.	.
8c#X\J)	]]	8e\J)	]]	.	.	.	.
=178	=178	=178	=178	=178	=178	=178	=178
4.B\	.	(4.d\	.	2.r	.	4ff#\]	.
.	.	.	.	.	.	(8ee#X\L	.
8A\L	.	8c#X\L	.	.	.	8ff#\	.
8G#X\	.	8B\	.	.	.	8gg#X\	.
8F#\J	.	8A\J	.	.	.	8aa\J	.
=179	=179	=179	=179	=179	=179	=179	=179
4E#X\	.	4G#X/)	.	2.r	.	4.bb\)	.
2E#^\	.	2G#^>/	.	.	.	.	.
.	.	.	.	.	.	(8gg#X\L	.
.	.	.	.	.	.	8ccc\	.
.	.	.	.	.	.	8bb\J)	.
=180	=180	=180	=180	=180	=180	=180	=180
!	!	!LO:TX:t=poco cres:problem:dynamics with extention lines	!LO:HP:b:t=poco cres:ext=cd	!LO:TX:t=poco cres:problem:dynamics with extention lines	!LO:HP:a:t=poco cres:ext=cd	!	!
2F#\	.	2.A/	<	8r	<	2aan\	.
.	.	.	.	(8c#X/L	.	.	.
.	.	.	.	8a/	.	.	.
.	.	.	.	8f#/J	.	.	.
!LO:TX:a:t=P:problem:mixedbeam	!	!	!	!	!	!	!
(8E\L	.	.	.	4gn/	.	(4cc#Xt\	.
8AA/J)	.	.	.	.	.	.	.
=181	=181	=181	=181	=181	=181	=181	=181
(8D\L	.	[2.a\	.	8f#/L)	.	4dd\)	.
8F#'\	.	.	.	(>8A'/	.	.	.
8G'\	.	.	.	8B'/	.	4r	.
8A'\	.	.	.	8c#X'/	.	.	.
8B'\	.	.	.	8d'/	.	4r	.
8c#X'\J	.	.	.	8e'/J	.	.	.
=182	=182	=182	=182	=182	=182	=182	=182
(4.d\)	.	4a\]	.	(>4.fn/)	.	2.r	.
.	.	(8g#X\L	.	.	.	.	.
8c#X\L	.	8a\	.	8e/L	.	.	.
8B\	.	8b\	.	8d/	.	.	.
8A\J	.	8cc#X\J	.	8c#X/J)	.	.	.
=183	=183	=183	=183	=183	=183	=183	=183
!!LO:LB:g=original
!LO:TX:t=P:problem:brak zakończenia łuku	!	!LO:TX:t=P:problem:brak zakończenia łuku	!	!	!	!	!
2.G#X\)	.	(4.dd\)	.	4B/	.	2.r	.
.	.	.	.	2b\	.	.	.
.	.	8b\L	.	.	.	.	.
.	.	8ee\	.	.	.	.	.
.	.	8dd\J)	[[	.	[[	.	.
=184	=184	=184	=184	=184	=184	=184	=184
2.Gn\	.	(2cc#X\	f	([2b-X\	.	8eee\L	f
.	.	.	.	.	.	8ccc#X\	.
.	.	.	.	.	.	8bb-X\	.
.	.	.	.	.	.	8gg\	.
.	.	8c#X\L)	.	8b-\L]	.	8ee\	.
.	.	8e\J	.	8a\J)	.	8cc#X\J	.
=185	=185	=185	=185	=185	=185	=185	=185
!	!	!LO:TX:t=cres:problem:dynamics with extention lines	!LO:HP:b:t=cres:ext=cd	!	!	!LO:TX:t=cres:problem:dynamics with extention lines	!LO:HP:b:t=cres:ext=cd
8.Fn\L	.	8.d\L	<	8.a/L	.	8.dd\L	<
16E\Jk	.	16c#X\Jk	.	16a/Jk	.	16ee\Jk	.
4D\	.	[2d\	.	2a/	.	4ffn\	.
4C\	.	.	.	.	.	4ff#X\	.
=186	=186	=186	=186	=186	=186	=186	=186
4BB/	.	4d\]	.	4g/	.	4ff#\	.
2BB-X/	.	2d\	.	(8dd\L	.	2gg#tt\	.
.	.	.	.	8ffn\	.	.	.
.	.	.	.	8ee\	.	.	.
.	.	.	[	8dd\J)	.	.	[
.	.	.	.	.	.	16qqff#/LL	.
.	.	.	.	.	.	16qqgg/JJ	.
=187	=187	=187	=187	=187	=187	=187	=187
8AA/L	.	4e\	ff	4cc#X\	.	4aa\	ff
8BBn/J	.	.	.	.	.	.	.
8C#X\L	.	8E/L	.	4aa\	.	4r	.
8D\	.	8Fn/	.	.	.	.	.
8E\	.	8G/	.	(8.cc#\L	.	4r	.
8Fn\J	.	8A/J	.	.	.	.	.
.	.	.	.	16dd\Jk)	.	.	.
=188	=188	=188	=188	=188	=188	=188	=188
4.G\	.	4.B-X/	.	(8.ee\L	.	2.r	.
.	.	.	.	16ffn\Jk)	.	.	.
.	.	.	.	(4gg\	.	.	.
8G\L	.	8B-'/L	.	.	.	.	.
8Fn\	.	8A'/	.	4cc#X\)	.	.	.
8E\J	.	8G/J	.	.	.	.	.
=189	=189	=189	=189	=189	=189	=189	=189
8D\L	.	8Fn/L	.	4dd\	.	4r	.
8E\	.	8G/	.	.	.	.	.
8F#X\	.	8A/	.	4r	.	4ddd\	.
8G\	.	8B-X/	.	.	.	.	.
8A\	.	8c/	.	4r	.	(8.ff#\L	.
8B\J	.	8d/J	.	.	.	.	.
.	.	.	.	.	.	16gg\Jk)	.
=190	=190	=190	=190	=190	=190	=190	=190
4.c\	.	4.e-X\	.	2.r	.	(8.aa\L	.
.	.	.	.	.	.	.	>
.	.	.	>	.	.	16bb\Jk)	.
.	.	.	.	.	.	(4ccc\	.
8c\L	.	8e-\L	.	.	.	.	.
8B\	.	8d\	.	.	.	4ff#\)	]]
8A\J	.	8c\J	]]	.	.	.	.
=191	=191	=191	=191	=191	=191	=191	=191
(8G\L	.	4B-X\	pp	4r	.	4gg\	p
8A\	.	.	.	.	.	.	.
8B-X\	.	4r	.	(4gg\	pp	4r	.
8G\	.	.	.	.	.	.	.
8g\	.	4r	.	8.b-X\L	.	4r	.
8e-X\J)	.	.	.	.	.	.	.
.	.	.	.	16cc\Jk)	.	.	.
=192	=192	=192	=192	=192	=192	=192	=192
4d\	.	(8d\L	pp	4dd\	.	4r	.
.	.	8e\	.	.	.	.	.
4r	.	8fn\	.	4r	.	(4bb\	pp
.	.	8d\	.	.	.	.	.
4r	.	8dd\	.	4r	.	8.ffn\L	.
.	.	8b-X\J)	.	.	.	.	.
.	.	.	.	.	.	16gg\Jk)	.
=193	=193	=193	=193	=193	=193	=193	=193
(8A\L	.	4a\	.	4r	.	4aa\	.
8Bn\	.	.	.	.	.	.	.
8c\	.	4r	.	(4aa\	.	4r	.
8A\	.	.	.	.	.	.	.
8a\	.	4r	.	8.cc\L	.	4r	.
8fn\J)	.	.	.	.	.	.	.
.	.	.	.	16dd\Jk)	.	.	.
=194	=194	=194	=194	=194	=194	=194	=194
4e\	.	(8e\L	.	4ee\	.	4r	.
!	!	!LO:TX:t=cres:problem:dynamics with extention lines	!LO:HP:b:t=cres:ext=cd	!	!	!LO:TX:t=cres:problem:dynamics with extention lines	!LO:HP:b:t=cres:ext=cd
.	.	8f#X\	<	.	.	.	<
4r	.	8g\	.	4r	.	4eee\	.
.	.	8e\	.	.	.	.	.
4r	.	8ee\	.	4ee\	.	(8.gg\L	.
.	.	8cc\J)	[[	.	.	.	.
.	.	.	.	.	.	16aa\Jk)	[[
=195	=195	=195	=195	=195	=195	=195	=195
[2.B\	.	(4b\	f	(4dd#X\	.	(8bb\L	f
.	.	.	.	.	.	8aa#X\	.
.	.	8cc\L	.	8ff#\L	.	8aan\	.
.	.	8b\	.	8ee\	.	8gg\	.
.	.	8a\	.	8ccn\	.	8ff#\	.
.	.	8g\J	.	8b\J	.	8ee\J	.
=196	=196	=196	=196	=196	=196	=196	=196
!!LO:PB:g=original
2.B\]	.	(8f#\L)	.	(8a\L)	.	(8dd#X\L)	.
.	.	8g\	.	8b\	.	8ee\	.
.	.	8f#\	.	8a\	.	8ddn\	.
.	.	[8e\J	.	[8g\J	.	8cc\	.
.	.	4e\])	.	4g\]	.	8b\	.
.	.	.	.	.	.	8a#X\J)	.
=197	=197	=197	=197	=197	=197	=197	=197
[2.BB/	.	(4d#X\	.	(>4.f#/)	.	(>8b/L	.
!	!	!LO:TX:t=dim:problem:dynamics with extention lines	!LO:HP:b:t=dim:ext=cd	!	!	!LO:TX:t=dim:problem:dynamics with extention lines	!LO:HP:b:t=dim:ext=cd
.	.	.	>	.	.	8a#X/	>
.	.	8c\L	.	.	.	8an/	.
.	.	8B\	.	8e/L	.	8g/	.
.	.	8A\	.	8cn/	.	8f#/	.
.	.	8G\J	.	8B/J	.	8e/J	.
=198	=198	=198	=198	=198	=198	=198	=198
2.BB/_	.	8F#/L	.	8A/L	.	8d#X/L	.
.	.	8G/J	.	8B/J	.	8e/	.
.	.	4A/	.	4cn/	.	8f#/	.
.	.	.	.	.	.	8fn/J	.
.	.	4G/)	.	8B/L	.	4e/)	.
.	.	.	]]	8A#X/J)	.	.	]]
=199	=199	=199	=199	=199	=199	=199	=199
(8BB/L]	.	(>[2F#/	p	(>[2B/	.	(>[2d#X/	p
8C/	.	.	.	.	.	.	.
8BB/	.	.	.	.	.	.	.
8AA#X/	.	.	.	.	.	.	.
8BB/	.	8F#/L]	.	8B/L]	.	8d#/L]	.
8EE^>/J)	.	8G/J)	.	8B/J)	.	8e^>/J)	.
=200	=200	=200	=200	=200	=200	=200	=200
(8BB/L	.	(>[2F#/	.	(>[2B/	.	(>[2d#X/	.
8C/	.	.	.	.	.	.	.
8BB/	.	.	.	.	.	.	.
8AA#X/	.	.	.	.	.	.	.
8BB/	.	8F#/L]	.	8B/L]	.	8d#/L]	.
8EE^>/J)	.	8G/J)	.	8B/J)	.	8e^>/J)	.
=201	=201	=201	=201	=201	=201	=201	=201
8BB\L	.	8F#/L	<	8B/L	.	8d#X/L	<
8F#\ 8BB\	.	8F#/J	.	8B/	.	8d#/	.
8F#\ 8BB\	.	8B\L	.	8d#X/	.	8f#/	.
8F#\ 8BB\	.	8d#X\	.	8f#/	.	8b/J	.
8F#\ 8BB\	.	8f#\	.	8b/	.	8dd#X\L	.
8F#\J 8BB\	.	8b\J	[[	8dd#X/J	.	8ff#\J	[[
=202	=202	=202	=202	=202	=202	=202	=202
4F#\ 4BB\	.	4dd#X\	f	4ff#\	.	4bb\	f
(2d#X^\	.	[2b\	>	(2ff#\	> ]	(2aa\	> ]]
.	.	.	]	.	.	.	.
=203	=203	=203	=203	=203	=203	=203	=203
8.e\L)	.	8.b\L]	.	8.ee\L)	.	8.gg\L)	p
(16B'\Jk	.	(16a'\Jk	.	(16dd#X'\Jk	.	(16ff#\Jk	]
4c'\	.	4g'\	.	4ee'\	.	4ee'\	.
4A'\)	.	4a'\)	.	4cc'\	.	4ff#'\)	.
=204	=204	=204	=204	=204	=204	=204	=204
2.B\	.	(4g\	.	(8.b\L)	.	(2ee\	.
.	.	.	.	16a#X\Jk	.	.	.
.	.	2f#\	.	2an\)	.	.	.
.	.	.	.	.	.	4dd#X\	.
=205	=205	=205	=205	=205	=205	=205	=205
(2E\	.	4e\)	.	(>[2.g/	.	8.ee\L)	.
.	.	.	<	.	.	.	<
.	.	.	.	.	.	(16b\Jk	.
.	.	4r	.	.	.	4cc\	.
4E-X\	.	(>4B-X/	[[	.	.	4cc#X\)	[[
=206	=206	=206	=206	=206	=206	=206	=206
2.D\	.	4Bn/	.	8.g/L]	.	(2dd\	>
.	.	.	>	.	.	.	.
.	.	.	.	16g#X/Jk	.	.	.
.	.	2c/	]]	2a/	.	.	.
.	.	.	.	.	.	4f#/	]]
=207	=207	=207	=207	=207	=207	=207	=207
4G\)	.	4B/)	p	4g/)	.	8.g\L)	p
.	.	.	.	.	.	(16g\Jk	.
4r	.	4r	.	4r	.	4a\	.
4C/	.	[>4G/	.	[>4e/	.	4a#X\	.
=208	=208	=208	=208	=208	=208	=208	=208
!!LO:LB:g=original
!	!	!LO:TX:t=P:problem:zakończenie ligatury na dole	!	!LO:TX:t=P:problem:zakończenie ligatury na dole	!	!	!
2.BB/	.	8.G/L]	.	8.e/L]	.	[4b\	.
.	.	16G#X/Jk	.	16e#X/Jk	.	.	.
.	.	4A/	.	4f#/	.	8.b\L]	.
.	.	.	.	.	.	16cc\K)	.
.	.	4F#/	.	4d#X/	.	(8.b\	.
.	.	.	.	.	.	16a\Jk)	.
=209	=209	=209	=209	=209	=209	=209	=209
4EE/	.	4B\	.	4e/	.	(8.g/L	.
.	.	.	<	.	.	.	<
.	.	.	.	.	<	16a/K)	.
4FF#/	.	4B\	.	4d#X/	.	(8.f#/	.
.	.	.	.	.	.	16g/K)	.
8.GG/L	.	(4B\	[[	[4e/	[[	(8.e/	.
16GG#X/Jk	.	.	.	.	.	16d/Jk)	[[
=210	=210	=210	=210	=210	=210	=210	=210
8.AA/L	.	8.A/L)	.	8.e/L]	.	8.c/L	>
.	.	.	>	.	.	.	.
16BB/Jk	.	16G#X/Jk	.	16e/Jk	.	16B/Jk	.
.	.	.	.	.	>	.	.
2C/	.	4A/	.	[2e/	.	(>4A/	.
.	.	[4Gn/	]]	.	]]	4A#Xtt/)	]]
=211	=211	=211	=211	=211	=211	=211	=211
[2.BB/	.	2G/]	p	4e/]	.	[2.B/	p
!	!	!	!	!LO:TX:b:i:t=espres&colon;	!	!	!
.	.	.	.	(4bb\	.	.	.
.	.	(8.g\L	.	8.ee\L	.	.	.
.	.	16f#\Jk	.	16ff#\Jk)	.	.	.
=212	=212	=212	=212	=212	=212	=212	=212
2.BB/]	.	2e\	.	([4gg\	.	8.B/L]	.
.	.	.	.	.	.	(>16c/Jk	.
.	.	.	.	8.gg\L]	.	4B/	.
.	.	.	.	16aa\K	.	.	.
.	.	4A/	.	8.ff#\	.	4d#Xtt/	.
.	.	.	.	16gg\Jk)	.	.	.
=213	=213	=213	=213	=213	=213	=213	=213
8E\	.	8G/)	.	4ee\	.	2.e/)	.
4E\	.	4G/	.	.	.	.	.
.	.	.	.	4r	.	.	.
4E\	.	4G/	.	.	.	.	.
.	.	.	.	4r	.	.	.
[8E\	.	[8G/	.	.	.	.	.
=214	=214	=214	=214	=214	=214	=214	=214
8E\L]	.	8G/L]	.	2.r	.	[2.ee\	.
(8E\	.	(8G/	.	.	.	.	<
.	.	.	<	.	.	.	.
8F#\)	.	8A/)	.	.	.	.	.
(8F#\	.	(8A/	.	.	.	.	.
8G\)	.	8B/)	.	.	.	.	.
((8G\J	.	(8B/J	.	.	.	.	.
=215	=215	=215	=215	=215	=215	=215	=215
4.A\)	.	(4.c/)	.	2.r	.	4ee\]	[[
.	.	.	.	.	.	(8dd#X\L	.
8G\L	.	8B/L	.	.	.	8ee\	.
8F#\	.	8A/	[	.	.	8ff#\	.
8E\J	.	8G/J	.	.	.	8gg\J	.
=216	=216	=216	=216	=216	=216	=216	=216
2.D#X\)	.	2.F#/)	>]	4r	.	4.aa\)	>
.	.	.	.	[2b\	.	.	.
.	.	.	.	.	.	(8ff#\L	.
.	.	.	.	.	.	8bb\	.
.	.	.	.	.	.	8aa\J)	]]
=217	=217	=217	=217	=217	=217	=217	=217
(8E\L	.	8G/L	.	2b\]	.	(8gg\L	.
8F#\	.	(8A/J	<	.	.	8ff#\	<
8G\	.	4B\	.	.	.	8ee\	.
8G#X\	.	.	.	.	.	8dd\	.
8A\	.	8c\L	.	8a\L	.	8cc\	.
8B\J)	.	8d\J	.	8g#X\J	.	8b\J	.
=218	=218	=218	=218	=218	=218	=218	=218
(8c\L	.	8e\L	.	4a\	.	2.a\)SSss	.
8B\J	.	8d\J	.	.	.	.	[[
4A\)	.	4c\)	[	4r	.	.	.
.	.	.	.	.	.	.	.
4r	.	4r	.	4r	.	.	.
=219	=219	=219	=219	=219	=219	=219	=219
2.AA/	.	(4.fn\	>	(4.g#X/	.	(4.dd\	>
.	.	8e\L	.	8a/L	.	8cc\L	.
.	.	8c\	.	8f#/	.	8a\	.
.	.	8A\J)	]]	8c/J)	.	8f#\J	]]
=220	=220	=220	=220	=220	=220	=220	=220
2BB/	.	(4G/	p	2B/	.	(4e/)	p
.	.	4F#/)	.	.	.	4d#X/)	.
4r	.	4r	.	4r	.	4b\	.
=221	=221	=221	=221	=221	=221	=221	=221
!!LO:LB:g=original
2.D#X\	.	2.r	.	8.r	.	4.aa\	.
.	.	.	.	(16b\	>	.	.
.	.	.	.	4cc\	.	.	.
.	.	.	.	.	]	(8aa\L	>
.	.	.	.	8b\L	.	8gg\	.
.	.	.	.	8a\J)	.	8ff#\J)	]
=222	=222	=222	=222	=222	=222	=222	=222
!LO:TX:t=poco cres:problem:dynamics with extention lines	!LO:HP:a:t=poco cres:ext=cd	!	!	!	!	!LO:TX:t=poco cres:problem:dynamics with extention lines	!LO:HP:b:t=poco cres:ext=cd
(8.E\L	<	2.r	.	(8.g\L	.	2ee\	<
16F#\Jk	.	.	.	16a\Jk	.	.	.
2G\)	.	.	.	4.b\	.	.	.
.	.	.	.	.	.	(4ee-X\	.
.	.	.	.	8b-X\)	.	.	.
=223	=223	=223	=223	=223	=223	=223	=223
2F#\	.	2.r	.	2.a\	.	4dd\)	.
.	.	.	.	.	.	[2ddd\	.
4FF#/	.	.	.	.	.	.	.
=224	=224	=224	=224	=224	=224	=224	=224
(>8.GG/L	.	4r	.	(8.b/L	.	2ddd\]	.
16AA/Jk	.	.	.	16a/Jk	.	.	.
2BB/)	.	4r	.	4g/	.	.	.
.	[[	([4G/	.	4fn/)	.	(4ddd#X\	[[
=225	=225	=225	=225	=225	=225	=225	=225
!	!LO:DY:a	!	!	!	!	!	!
2.C/	f	8.G/L]	.	2.e/	.	8eee\L)	f
.	.	.	.	.	.	8dddn'\	.
.	.	16G#X/Jk	.	.	.	.	.
.	.	[2A/	.	.	.	8ccc'\	.
.	.	.	.	.	.	(8bbtt\	.
.	.	.	.	.	.	8aa\)	.
.	.	.	.	.	.	8gg'\J	.
=226	=226	=226	=226	=226	=226	=226	=226
2.D\	.	8.A/L])	>	2.f#/	.	8ff#'\L	>
.	.	.	.	.	.	8eeTT\	.
.	.	(16B/Jk	.	.	.	.	.
.	.	2c\	]]	.	.	8dd\	.
.	.	.	.	.	.	8cc\	.
.	.	.	.	.	.	8b\	.
.	.	.	.	.	.	8a\J	]]
=227	=227	=227	=227	=227	=227	=227	=227
*	*	*	*	*tremolo	*	*	*
4G\	.	8B/L)	p	8g/L	.	4g/	p
.	.	8B/J	.	8g/J	.	.	.
2F#^\	.	8A/L	.	8d#X^>/L	.	(2b^>/	.
.	.	8A/	.	8d#/	.	.	.
.	.	8A/	.	8d#/	.	.	.
.	.	8A/J	.	8d#/J	.	.	.
=228	=228	=228	=228	=228	=228	=228	=228
4E\	.	8G/L	.	8e/L	.	4e/)	.
.	.	8G/J	.	8e/	.	.	.
(4AA/	.	8c/L	.	8e/	.	2f#^>/	.
.	.	8c/J	.	8e/	.	.	.
4AA#X/)	.	8c#X/L	.	8e/	.	.	.
.	.	8c#/J	.	8e/J	.	.	.
=229	=229	=229	=229	=229	=229	=229	=229
*	*	*	*	*Xtremolo	*	*	*
[2.BB/	.	8B/L	<	8d#X/L	<	4B/	.
.	.	8B/J	.	8d#/J	.	.	.
.	.	8d#X\L	.	8b\L	.	4r	.
.	.	(8d#\	.	(8b\	.	.	.
.	.	8e\)	.	8cc\)	.	4r	.
.	.	(8e\J	[[	(8cc\J	[[	.	.
=230	=230	=230	=230	=230	=230	=230	=230
2.BB/]	.	8e#X\L)	>	8cc#X\L)	.	2.r	.
.	.	(8e#\J	.	(8cc#\	>	.	.
.	.	8f#\)	.	8dd\)	.	.	.
.	.	4f#\	.	(8dd\	.	.	.
.	.	.	.	8dd#X\)	.	.	.
.	.	(8f#\	]]	(8dd#\J	]]	.	.
=231	=231	=231	=231	=231	=231	=231	=231
8EE/	.	8g\)	p	4ee\)	p	2.e/	p
4E\	.	4G/	.	.	.	.	.
.	.	.	.	4r	.	.	.
4E\	.	4G/	.	.	.	.	.
.	.	.	.	4r	.	.	.
[8E\	.	[8G/	.	.	.	.	.
=232	=232	=232	=232	=232	=232	=232	=232
8E\L]	.	8G/L]	.	2.r	.	[2.ee\	<
(8E\	.	(8G/	<	.	.	.	.
8F#\)	.	8A/)	.	.	.	.	.
(8F#\	.	(8A/	.	.	.	.	.
8G\)	.	8B/)	.	.	.	.	.
(8G\J	.	(8B/J	.	.	.	.	.
=233	=233	=233	=233	=233	=233	=233	=233
4.A\)	.	4.c/)	.	2.r	.	4ee\]	.
.	.	.	.	.	.	(8dd#X\L	.
8G\L	.	8B/L	.	.	.	8ee\	.
8F#\	.	8A/	.	.	.	8ff#\	.
8E\J	.	8G/J	[[	.	.	8gg\J	[[
=234	=234	=234	=234	=234	=234	=234	=234
2.D#X\	.	2.F#/	.	4r	.	(4.aa\)	.
.	.	.	.	[2b\	.	.	.
.	.	.	.	.	.	8ff#\L	.
.	.	.	.	.	.	8bb\	.
.	.	.	.	.	.	8aa\J)	.
=235	=235	=235	=235	=235	=235	=235	=235
!!LO:LB:g=original
!	!	!LO:TX:t=cres:problem:dynamics with extention lines	!LO:HP:t=cres:ext=cd	!	!	!LO:TX:t=cres:problem:dynamics with extention lines	!LO:HP:t=cres:ext=cd
2.Dn\	.	8Fn/L	<	8b\L]	.	2.gg#X\	<
.	.	8B/J	.	(8ffn\	.	.	.
.	.	8c\L	.	8ee\	.	.	.
.	.	8d\	.	8dd\	.	.	.
.	.	8e\	.	8cc\	.	.	.
.	.	8fn\J	[[	8b\J)	.	.	[[
=236	=236	=236	=236	=236	=236	=236	=236
8.C/L	.	8.e\L	f	8.a/L	.	(8.aa\L	f
16BB/Jk	.	16e\Jk	.	16g#X/Jk	.	16bb\Jk	.
4AA/	.	4e\	.	4a/	.	4ccc\)	.
4GG/	.	(4e\	.	[4a/	.	(4ccc\	.
=237	=237	=237	=237	=237	=237	=237	=237
4FF#/	.	4d#X\)	.	4a/]	.	8ccc\L	.
.	.	.	.	.	.	8bb\J)	.
4r	.	4r	.	4r	.	[4fff#\	>
!	!	!	!	!	!	!LO:TX:a:t=P:problem:klamra łukowa	!
!	!	!	!	!	!	!LO:TUP:a	!
4r	.	4r	.	4r	.	12fff#\L]	.
.	.	.	.	.	.	12ddd#X\	.
.	.	.	.	.	.	12bb\J	]]
=238	=238	=238	=238	=238	=238	=238	=238
!	!	!	!	!	!	!LO:TUP:a	!
4r	.	4r	p	4r	p	(12aa\L	p
.	.	.	.	.	.	12ff#X\	.
.	.	.	.	.	.	12dd#X\J	.
*	*	*	*	*	*	*Xtuplet	*
(4D#X'\	.	(4f#X'\	.	(>4a/ 4B'/	.	12b/L	.
.	.	.	.	.	.	12a/	.
.	.	.	.	.	.	12f#/J	.
4D#'\)	.	4f#'\)	.	4a/ 4B'/)	.	(12d#X/L)	.
.	.	.	.	.	.	12cc/	>
.	.	.	.	.	.	12b/J)	]
=239	=239	=239	=239	=239	=239	=239	=239
(2E\	.	4e\	.	4g/ 4B/	<	4b'\	.
.	.	.	<	.	.	.	.
.	.	[2e\	.	(4g#X/	.	([2ee^<\	.
8.F#\L	.	.	[[	8.a\L	[[	.	.
16G#X\Jk)	.	.	.	16b\Jk)	.	.	.
=240	=240	=240	=240	=240	=240	=240	=240
(8.A\L	.	2e\]	>	(8.cc\L	>	4.ee\]	.
16B\Jk	.	.	]	16b\Jk	.	.	.
4c\)	.	.	.	4a\)	]	.	.
.	.	.	.	.	.	8b\L	.
4r	.	4r	.	4r	.	8cc\	.
.	.	.	.	.	.	8a\J)	.
=241	=241	=241	=241	=241	=241	=241	=241
!	!LO:DY:a	!	!	!	!	!	!
[2.B\	p	4r	.	4r	.	(8.g/L	p
.	.	.	.	.	.	16a/Jk	.
.	.	8.r	.	8.r	.	[2b\	.
.	.	(16d#X\KL	.	(16f#/KL	.	.	.
.	.	8.e\	.	8.g/	.	.	.
.	.	16f#\Jk	.	16a/Jk	.	.	.
=242	=242	=242	=242	=242	=242	=242	=242
2.B\]	.	2g\	.	2b\	.	2b\]Ssss	.
.	.	4f#\	.	4a\	.	8cc#X\L	.
.	.	.	.	.	.	8dd#X\J)	.
=243	=243	=243	=243	=243	=243	=243	=243
!	!	!LO:TX:t=cres:problem:dynamics with extention lines	!LO:HP:t=cres:ext=cd	!	!	!LO:TX:t=cres:problem:dynamics with extention lines	!LO:HP:t=cres:ext=cd
4E\	.	4e\)	<	4g/)	.	(8.ee\L	<
.	.	.	.	.	.	16ff#\K	.
4r	.	8.r	.	8.r	.	8.gg\	.
.	.	(16dd\KL	.	(16ffn\KL	.	16gg#X\K)	.
4r	.	8.cc\	.	8.ee\	.	(8.aa\	.
.	.	16b\Jk)	.	16dd\Jk)	.	16bb\Jk)	.
=244	=244	=244	=244	=244	=244	=244	=244
4r	.	2a\	.	[2.cc\	.	4.cccn\	.
4r	.	.	.	.	.	.	.
.	.	.	.	.	.	(8ccc\L	.
.	.	.	.	.	.	(8qeee/	.
4G\	.	4b-X\	[[	.	.	8ddd\)	[[
.	.	.	.	.	.	8ccc\J)	.
=245	=245	=245	=245	=245	=245	=245	=245
4Fn\	.	4a\	f	4cc\]	.	8fffn\L	f
.	.	.	.	.	.	8ccc^<\	.
4r	.	4r	.	4r	.	8aa^<\	.
.	.	.	.	.	.	(8ffn'^<\	.
4r	.	4r	.	4r	.	8cc'^<\	.
.	.	.	.	.	.	8a'\J)	.
=246	=246	=246	=246	=246	=246	=246	=246
[2.FFn/	.	[2.A/	>	2.r	.	(>2fn/	>
.	.	.	]	.	.	.	.
.	.	.	.	.	.	4e/	]
=247	=247	=247	=247	=247	=247	=247	=247
!!LO:PB:g=original
2.FF/]	.	(8A/L]	.	2.r	.	(2.d#X/)	p
.	.	8G#X/	.	.	.	.	.
.	.	8A/	.	.	.	.	.
.	.	8c/	.	.	.	.	.
.	.	8B/	.	.	.	.	.
.	.	8A/J)	.	.	.	.	.
=248	=248	=248	=248	=248	=248	=248	=248
!	!	!	!	!	!	!LO:TX:a:t=P:problem:mixedbeam	!
4EE/	.	4G#X/	.	2.r	.	8e/L)	.
.	.	.	.	.	.	(8ee\	.
2G#X^<\	.	(>2B^/	.	.	.	8dd#X\	.
.	.	.	.	.	.	8ee\	.
.	.	.	.	.	.	(8qgg/	.
.	.	.	.	.	.	8ffn\)	.
.	.	.	.	.	.	8ee\J)	.
=249	=249	=249	=249	=249	=249	=249	=249
(2.A\	.	4c\)	.	4r	.	(8ee\L	.
.	.	.	.	.	.	8ccc\	.
.	.	4r	.	8r	.	8bb\	>
.	.	.	.	(8cc\L	>	8aa\	.
.	.	4r	.	8b\	.	8gg\	.
.	.	.	.	8a\J	]]	8ff#\J)	]]
=250	=250	=250	=250	=250	=250	=250	=250
4B\)	.	(2.B/	.	2.g/	.	(2ee\SSss	.
[2BB/	.	.	.	.	.	.	.
.	.	.	.	.	.	8ee\L	.
.	.	.	.	.	.	8ff#\J	.
=251	=251	=251	=251	=251	=251	=251	=251
2.BB/_	.	2.G/)	.	2.B/)	.	8gg\L	.
.	.	.	.	.	.	8dd#X\	.
.	.	.	.	.	.	8ee\	.
.	.	.	.	.	.	8b\	.
.	.	.	.	.	.	8g\	.
.	.	.	.	.	.	8e\J)	.
=252	=252	=252	=252	=252	=252	=252	=252
2.BB/_	.	[2.F#/	.	[2.A/	.	(>8e/L	.
!	!	!LO:TX:t=dimin:problem:dynamics with extention lines	!LO:HP:t=dimin:ext=cd	!	!	!LO:TX:t=dimin:problem:dynamics with extention lines	!LO:HP:t=dimin:ext=cd
.	.	.	>	.	.	8d#X/J	>
.	.	.	.	.	.	4.cc^<\	.
.	.	.	.	.	.	8b\)	.
=253	=253	=253	=253	=253	=253	=253	=253
2.BB/]	.	2F#/]	.	2.A/]	.	(8e/L	.
.	.	.	.	.	.	8d#X/	.
.	.	.	.	.	.	8cc#X/	.
.	.	.	.	.	.	8b/	]]
.	.	4D#X/	.	.	.	8a/	.
.	.	.	]]	.	.	8f#/J)	.
=254||	=254||	=254||	=254||	=254||	=254||	=254||	=254||
*k[f#c#g#d#]	*	*k[f#c#g#d#]	*	*k[f#c#g#d#]	*	*k[f#c#g#d#]	*
!	!	!LO:TX:a:t=P:problem:mixedbeam	!	!	!	!	!
4EE/	p	8E/L	p	8G#/L	.	4e/	p
.	.	8e\J	.	8g#/J	.	.	.
*	*	*tremolo	*	*tremolo	*	*	*
4r	.	8e\L	.	8g#/L	.	4r	.
.	.	8e\	.	8g#/	.	.	.
4r	.	8e\	.	8g#/	.	4r	.
.	.	8e\J	.	8g#/J	.	.	.
=255	=255	=255	=255	=255	=255	=255	=255
!LO:TX:a:i:t=pizz&colon;	!	!	!	!	!	!LO:TX:b:i:t=dol&colon;	!
8r	.	[2.e\	.	(>[2.g#/	.	2eee\	.
8EE/L	.	.	.	.	.	.	.
8GG#/	.	.	.	.	.	.	.
8BB/J	.	.	.	.	.	.	.
4E\	.	.	.	.	.	(8.gg#\L	.
.	.	.	.	.	.	16aa\Jk)	.
=256	=256	=256	=256	=256	=256	=256	=256
!LO:TX:a:t=P:problem:mixedbeam	!	!	!	!	!	!	!
8EE/L	.	2.e\]	.	2g#/]	.	4bb'\	.
8E\	.	.	.	.	.	.	.
8C#\	.	.	.	.	.	(4ee'\	.
8C#\J	.	.	.	.	.	.	.
!LO:TX:a:t=P:problem:mixedbeam	!	!	!	!	!	!	!
8F#\L	.	.	.	4a#X/)	.	4ff#'\)	.
8FF#/J	.	.	.	.	.	.	.
=257	=257	=257	=257	=257	=257	=257	=257
!LO:TX:a:t=P:problem:mixedbeam	!	!	!	!	!	!	!
8BB/L	.	(2d#X\	.	(2b\	.	(2b\	.
8B\	.	.	.	.	.	.	.
8F#\	.	.	.	.	.	.	.
8D#X\J	.	.	.	.	.	.	.
4BB/	.	4f#\	.	4an\	.	8cc#X\L)	.
.	.	.	.	.	.	8dd#X\J	.
=258	=258	=258	=258	=258	=258	=258	=258
!LO:TX:a:t=P:problem:mixedbeam	!	!	!	!	!	!	!
8EE/L	.	4e\	.	4f#\	.	(8ee\L	.
8e\	.	.	.	.	.	8ff#\J	.
8E\	.	4g#\	.	4a\	.	4gg#\	.
8EE/J	.	.	.	.	.	.	.
!LO:TX:a:t=P:problem:mixedbeam	!	!	!	!	!	!	!
8DD#/L	.	4f#\)	.	4b#X\)	.	4gg#\)	.
8D#\J	.	.	.	.	.	.	.
=259	=259	=259	=259	=259	=259	=259	=259
.	.	.	.	.	.	4qqgg#/	.
8C#/L	.	(2e\	.	(2cc#\	.	(2eee^<\	.
!	!	!	!	!	!	!LO:TX:b:i:t=espres	!
8CC#/	.	.	.	.	.	.	.
8GG#/	.	.	.	.	.	.	.
8C#/J	.	.	.	.	.	.	.
!LO:TX:a:t=P:problem:mixedbeam	!	!	!	!	!	!	!
8FF#/L	.	4f#\	.	4a\)	.	8ddd#\L	.
8F#\J	.	.	.	.	.	8ccc#\J)	.
=260	=260	=260	=260	=260	=260	=260	=260
!!LO:LB:g=original
!	!	!LO:TX:t=P:problem:brak zakończenia łuku	!	!	!	!	!
4G#\	.	(2.d#\)	.	(4.f#/	.	(2.bb#T<\	.
4GG#/	.	.	.	.	.	.	.
!	!	!	!	!	!LO:HP:a	!	!
.	.	.	.	8a/L	>	.	.
4GG#/	.	.	.	8g#/	.	.	.
.	.	.	.	8f#/J)	]	.	.
.	.	.	.	.	.	(16qqaa#X/LL	.
.	.	.	.	.	.	16qqbb#/JJ)	.
=261	=261	=261	=261	=261	=261	=261	=261
8E\L	.	[2e\	.	(4e/	.	4ccc#\)	.
8c#\	.	.	.	.	.	.	.
8B\	.	.	.	4g#/	.	(4dddn^<\	.
8BB\J	.	.	.	.	.	.	.
!LO:TX:a:t=P:problem:mixedbeam	!	!	!	!	!	!	!
*	*	*Xtremolo	*	*	*	*	*
8E\L	.	8e\L]	.	4b\	.	4gg#\	.
8EE/J	.	8dn\J)	.	.	.	.	.
=262	=262	=262	=262	=262	=262	=262	=262
4AA/	.	(4.c#\	.	4a\)	.	(8aa\L)	.
.	.	.	.	.	.	8bb\	<
!LO:TX:a:t=arco	!	!	!	!	!	!	!
[2AA/	.	.	<	4r	.	8ccc#\	.
.	.	8G#/L	.	.	.	8bb\	.
.	.	8A/	.	4r	.	8aa\	.
.	.	8B/J	[[	.	.	8gg#\J	[[
=263	=263	=263	=263	=263	=263	=263	=263
2.AA/]	.	4c#\	.	2.r	.	2.ff##\)	>
.	.	.	>	.	.	.	.
.	.	4e\	.	.	.	.	.
.	.	8d#\L	.	.	.	.	.
.	.	8c#\J)	]]	.	.	.	]
=264	=264	=264	=264	=264	=264	=264	=264
(4GG#/	.	4B#X\	.	4r	.	(4.gg#\	.
*	*above	*	*	*	*	*	*
4BB#X/	<	4r	.	[2g#^>/	.	.	<
.	.	.	.	.	.	8dd#\L	.
8C#\L	.	4r	.	.	.	8ee\	.
8D#\J	.	.	.	.	.	8b#X\J	.
=265	=265	=265	=265	=265	=265	=265	=265
8E\L	.	4r	.	2g#/]	.	8cc#\L	[
8D#\J	[	.	.	.	.	8dd#\J	.
4C#\	.	4r	.	.	.	4ee\)	.
.	.	.	>	.	.	.	.
4D#\	.	(4A#X/	]]	(4c#^>/	.	(4f##X/	>]
=266	=266	=266	=266	=266	=266	=266	=266
!	!	!	!	!LO:TX:a:t=his	!	!	!
4GG#/)	p	4G#/)	.	4B#X/)	.	4g#\)	p
8r	<	4r	.	[2g#^>/	.	(8gg#\L	<
(8BB#X^\L	.	.	.	.	.	8dd#^\	.
8C#\	.	4r	.	.	.	8ee\	.
8D#^<\J	.	.	.	.	.	8b#X^\J	.
=267	=267	=267	=267	=267	=267	=267	=267
!	!	!	!	!LO:N:vis=2.	!	!	!
8E\L	.	4r	.	2g#/]	.	8cc#\L	.
8D#^<\J	[	.	.	.	.	8dd#^\J	.
4C#\	.	4r	.	.	.	4ee\	[
.	.	.	>	.	.	.	.
4D#\)	.	(4A#X/	]]	(4c#/	.	(4f##X/)	>]
=268	=268	=268	=268	=268	=268	=268	=268
!	!	!	!	!LO:TX:a:t=his	!	!	!
4GG#/	p	4G#/)	.	4B#X/)	.	4g#\)	p
8r	.	(4d#\	.	(4b#X\	.	[2gg#^<\	.
(8GG#/L	.	.	.	.	.	.	.
8C#/	.	4e\	.	4cc#\	.	.	.
8E/J	.	.	.	.	.	.	.
=269	=269	=269	=269	=269	=269	=269	=269
!	!	!	!	!	!	!LO:TX:a:t=P:problem:mixedbeam	!
!	!	!	!	!	!	!LO:TX:t=dimin:problem:dynamics with extention lines	!LO:HP:t=dimin:ext=cd
4G#\)	.	2d#\	.	2b#X\	.	8gg#\L]	>
.	.	.	.	.	.	8g#'/J	.
8r	.	.	.	.	.	[2gg#^<\	.
8GG#/L	.	.	.	.	.	.	.
8C#/	.	4e\)	.	4cc#\)	.	.	.
8E/J	.	.	.	.	.	.	]]
=270	=270	=270	=270	=270	=270	=270	=270
*	*	*	*	*Xtremolo	*	*	*
[2.G#\	.	(8d#\L	.	(8b#X\L	.	8gg#\L]	.
.	.	8e^\	.	8cc#^\	.	(8ff##^<\	.
.	.	8d#\	.	8b#\	.	8gg#\	.
.	.	8e^\	.	8cc#^\	.	8ff##^<\	.
.	.	8d#\	.	8b#\	.	8gg#\	.
.	.	8e^\J	.	8cc#^\J	.	8ff##^<\J	.
=271	=271	=271	=271	=271	=271	=271	=271
4G#\]	.	(2d#\)	.	4b#X\)	.	4gg#\)	.
.	.	.	<	.	.	.	<
4F#\	.	.	.	(2ccn\	.	[2aa\	.
4E\	.	4e\	[[	.	.	.	.
=272	=272	=272	=272	=272	=272	=272	=272
4D#\	.	4f#\)	f	4bn\)	.	8aa\L]	[
.	.	.	.	.	.	(16aa\L	f
.	.	.	.	.	.	16gg#\JJ	.
4r	.	4r	.	4r	.	16ff#\LL	.
.	.	.	.	.	.	16ee\	.
.	.	.	.	.	.	16dd#\	.
.	.	.	.	.	.	16cc#\JJ	.
4r	.	4r	.	4r	.	16b\LL	.
.	.	.	.	.	.	16b#X\	.
.	.	.	.	.	.	16dd#\	.
.	.	.	.	.	.	16cc#\JJ)	.
=273	=273	=273	=273	=273	=273	=273	=273
!!LO:LB:g=original
4r	.	4r	.	4r	.	(<16b/LL	.
.	.	.	.	.	.	16a/	.
.	.	.	.	.	.	16f#/	.
.	.	.	.	.	.	16d#/JJ	.
!	!	!	!	!	!	!LO:TX:a:t=P:problem:mixedbeam	!
4r	.	4r	.	4r	.	8B/L)	.
.	.	.	.	.	.	(8b\	.
(4D#\	.	[4B\	.	(4f#/	.	8.bb\	>
.	.	.	.	.	.	16aa\Jk)	]]
=274	=274	=274	=274	=274	=274	=274	=274
!	!	!	!	!	!	!LO:TX:b:t=poco riten::problem:dynamics with extention lines:dur=9q:ext=cd	!
4E\)	.	4B\]	.	4e/)	.	8gg#\	.
.	.	.	.	.	.	4eee^\	.
!	!	!LO:TX:b:t=poco riten::problem:dynamics with extention lines:dur=8q:ext=cd	!	!	!	!	!
4r	.	8r	.	8r	.	.	.
.	.	(8ff#^<\L	.	(4gg#\	.	8bb#X\	.
4r	.	8ee\	.	.	.	8ccc#\L	.
.	.	8ddn^<\J	.	[8ee\	.	8gg#\J	.
=275	=275	=275	=275	=275	=275	=275	=275
4r	.	8cc#\L	.	8ee\L]	.	8aa\L	.
.	.	8b\J	.	8ddn\J	.	8ee#X\J	.
4r	.	4a\)	.	4cc#\)	.	4ff#\	.
*	*below	*	*	*	*	*	*
(4A#X\	fz > ]]	[4e\	fz > ]]	(>4f##X/	fz > ]]	[4ccc#\	fz > ]]
=276	=276	=276	=276	=276	=276	=276	=276
!	!	!	!	!	!	!LO:TUP:a	!
2.B\)	.	2e\]	.	2g#/	.	(12ccc#\L]	.
.	.	.	.	.	.	12bb'\	.
.	.	.	.	.	.	12aa'\J	.
*	*	*	*	*	*	*Xtuplet	*
.	.	.	.	.	.	12gg#'\L	.
.	.	.	.	.	.	12ff#'\	.
.	.	.	.	.	.	12ee'\J	.
.	.	4f#\	.	4a/	.	12dd#'\L	.
.	.	.	.	.	.	12cc#'\	.
.	.	.	.	.	.	12b\J)	.
=277	=277	=277	=277	=277	=277	=277	=277
*tremolo	*	*	*	*	*	*	*
!	!	!LO:TX:b:i:t=a tempo	!	!	!	!LO:TX:b:i:t=a tempo	!
8E\L	.	8e\L	.	8g#/L	.	(16ee\LL	.
.	.	.	.	.	.	16b\)	.
8E\	.	8e\J	.	8g#/J 8B/)	.	16cc#'\	.
.	.	.	.	.	.	16b'\JJ	.
*	*	*tremolo	*	*tremolo	*	*	*
8E\	.	8e\L	.	8g#/L 8B/	.	(16a#X\LL	.
.	.	.	.	.	.	16b\)	.
8E\J	.	8e\J	.	8g#/J 8B/	.	16ee'\	.
.	.	.	.	.	.	16gg#'\JJ	.
8D#\L	.	8f#\L	.	8a/L 8B/	.	16ff#'\LL	.
.	.	.	.	.	.	16b'\	.
8D#\J	.	8f#\J	.	8f#/J 8B/	.	16bb'\	.
!	!	!	!	!	!	!LO:TX:t=P:problem:takt wykreślony oznaczony notatkami „vi”, „de”	!
.	.	.	.	.	.	16aa'\JJ	.
=278	=278	=278	=278	=278	=278	=278	=278
8E\L	.	8e\	.	8g#/L 8B/	.	(16gg#\LL	.
.	.	.	.	.	.	16aa\)	.
8D#^\J	.	4g#^<\	.	8b#X^/	.	(16gg#^<'\	.
.	.	.	.	.	.	16ff#'\JJ)	.
8C#/L	.	.	.	8cc#/	.	(16ee\LL	.
.	.	.	.	.	.	16ff#\)	.
8BB^>/J	.	4e^<\	.	8g#^/	.	(16ee^<'\	.
.	.	.	.	.	.	16ddn'\JJ)	.
8AA/L	.	.	.	8a/	.	(16cc#\LL	.
.	.	.	.	.	.	16dd\)	.
8GG#^>/J	.	[8c#^<\	.	8e#X^/J	.	(16cc#^<'\	.
.	.	.	.	.	.	16b'\JJ)	.
=279	=279	=279	=279	=279	=279	=279	=279
*	*	*Xtremolo	*	*	*	*	*
!LO:TX:a:t=P:problem:mixedbeam	!	!	!	!	!	!	!
8FF#/L	.	8c#\L]	.	8f#/L	.	(16a\LL	.
.	.	.	.	.	.	16cc#\)	.
*	*	*tremolo	*	*	*	*	*
8F#\J	.	8f#\J 8B\	.	8a/J	.	16ddny'\	.
.	.	.	.	.	.	16cc#'\JJ	.
8F#\L	.	8f#\L 8B\	.	8a/L	.	(16b#X\LL	.
.	.	.	.	.	.	16cc#\)	.
8F#\J	.	8f#\J 8B\	.	8a/J	.	16ff#'\	.
.	.	.	.	.	.	16aa'\JJ	.
8E#X\L	.	8g#\L 8B\	.	8b/L	.	16gg#'\LL	.
.	.	.	.	.	.	16cc#'\	.
8E#\J	.	8g#\J 8B\	.	8g#/J	.	16cccny'\	.
.	.	.	.	.	.	16bbn'\JJ	.
=280	=280	=280	=280	=280	=280	=280	=280
8F#\L	.	8f#\ 8c#\	.	8a\L	.	(16aa\LL	.
.	.	.	.	.	.	16bb\)	.
!	!	!	!	!	!	!LO:TX:t=cres:problem:dynamics with extention lines	!LO:HP:t=cres:ext=cd
8E^\	.	4a^<\	.	8cc#^<\	.	(16aa^<'\	<
.	.	.	.	.	.	16ggn'\JJ)	.
8Dn\	.	.	.	8ddn\	.	(16ff#\LL	.
.	.	.	.	.	.	16gg\)	.
8C#^\J	.	4f#^<\	.	8a#X^<\	.	(16ff#^<'\	.
.	.	.	.	.	.	16ee'\JJ)	.
8BB/L	.	.	.	8b\J	.	(16ddn\LL	.
.	.	.	.	.	.	16ee\)	.
8AA^>/J	.	[8f#\	.	8r	.	(16dd^<'\	.
.	.	.	.	.	.	16cc#'\JJ)	[[
=281	=281	=281	=281	=281	=281	=281	=281
!!LO:LB:g=original
2.GG#/	.	4f#\]	f	4r	.	8b#\L	f
.	.	.	.	.	.	16g#\L	.
.	.	.	.	.	.	16b#\JJ	.
.	.	(2d#\	.	(2b#X\	.	(16dd#\LL	.
.	.	.	.	.	.	16gg#\)	.
.	.	.	.	.	.	16bb#'\	.
.	.	.	.	.	.	16ddd#'\JJ	.
.	.	.	.	.	.	(8.gggny\L	.
.	.	.	.	.	.	16fff#\Jk)	.
=282	=282	=282	=282	=282	=282	=282	=282
*	*above	*	*	*	*	*	*
8C#\L	.	4e\)	.	8cc#\L)	.	(16fff#\LL	.
.	.	.	.	.	.	16eee\)	.
8D#\	.	.	.	8b#X\	.	(16eee\	.
.	.	.	.	.	.	16ddd#\JJ)	< <
8E\	.	4r	.	8cc#\	.	(16ddd#\LL	.
.	<	.	.	.	.	16ccc#\)	.
8E#X\	.	.	.	8g#\J	.	(16ccc#\	.
.	.	.	.	.	.	16bb\JJ)	.
8F#\	.	4r	.	8a/L	.	(16bb\LL	.
.	.	.	.	.	.	16aa\)	.
8G#\J	.	.	.	8e#X/J	.	(16aa\	.
.	.	.	.	.	.	16gg#\JJ)	[[
=283	=283	=283	=283	=283	=283	=283	=283
!LO:N:vis=2.	!LO:DY:a	!	!	!	!	!	!
2A\	.	2.c#\	.	2.f#/	.	(16gg#\LL	[
.	[[	.	.	.	.	16ff#\)	.
.	.	.	.	.	.	16ee#X'\	.
.	.	.	.	.	.	16ff#'\JJ	.
.	>	.	.	.	.	(16gg#\LL	>
.	.	.	.	.	.	16ff#\	.
.	.	.	.	.	.	16aa\	.
.	.	.	.	.	.	16gg#\JJ	.
4AA/	.	.	.	.	.	16bb\LL	.
.	.	.	.	.	.	16aa\	.
.	.	.	.	.	.	16cc#\	.
.	]]	.	.	.	.	16ff#\JJ)	]]
=284	=284	=284	=284	=284	=284	=284	=284
*tremolo	*	*	*	*	*	*	*
8BB/L	p	8B\L	.	8g#/L	.	(16ee\LL	p
.	.	.	.	.	.	16b\	.
8BB/	.	8e\J	.	8g#/J 8B/	.	16gg#\	.
.	.	.	.	.	.	16ff#\JJ	.
*	*below	*tremolo	*	*tremolo	*	*	*
8BB/	.	8e\L	.	8g#/L 8B/	.	16ee\LL	.
.	.	.	.	.	.	16dd#\	.
8BB/	.	8e\J	.	8g#/J 8B/	.	16cc#\	.
.	.	.	.	.	.	16b\JJ)	.
8BB/	.	8d#\L	.	8f#/L 8B/	.	(16a#X\LL	.
.	.	.	.	.	.	16b\	.
8BB/J	.	8d#\J	.	8a/J 8B/	.	16an\	.
.	.	.	.	.	.	16f#\JJ)	.
=285	=285	=285	=285	=285	=285	=285	=285
8E\L	.	8e\L	.	8g#/L 8B/	.	8e\L	.
8E\	.	8e\	.	8g#/ 8B/	.	16cc#\L	.
.	.	.	.	.	.	16b\JJ	.
8E\	.	8e\	.	8g#/ 8B/	.	(16a#X\LL	.
.	.	.	.	.	.	16b\)	.
8E\J	.	8e\J	.	8g#/J 8B/	.	16ee'\	.
.	.	.	.	.	.	16ggny'\JJ	.
8D#\L	.	8f#\L	.	8a/L 8B/	.	(16ff#^<\LL	.
.	.	.	.	.	.	16b\)	.
8D#\J	.	8f#\J	.	8f#/J 8B/	.	16bb'\	.
.	.	.	.	.	.	16aa'\JJ	.
=286	=286	=286	=286	=286	=286	=286	=286
!	!	!LO:N:vis=2.	!	!	!	!	!
8E\L	.	8e\L	.	8g#/L 8B/	.	(16gg#\LL	.
.	.	.	.	.	.	16b\)	.
8E\	.	8e\	.	8g#/ 8B/	.	16cc#'\	.
.	.	.	.	.	.	16b'\JJ	.
8E\	.	8e\	.	8g#/ 8B/	.	(16a#X\LL	.
.	.	.	.	.	.	16b\)	.
8E\J	.	8e\J	.	8g#/J 8B/	.	16ee'\	.
.	.	.	.	.	.	16gg#'\JJ	.
8D#\L	.	8f#\L	.	8a/L 8B/	.	(16ff#\LL	.
.	.	.	.	.	.	16b\)	.
8D#\J	.	8f#\J	.	8f#/J 8B/	.	16bb'\	.
.	.	.	.	.	.	16aa'\JJ	.
=287	=287	=287	=287	=287	=287	=287	=287
!	!	!	!	!LO:TX:a:t=P:problem:mixedbeam	!	!LO:TX:a:t=P:problem:mixedbeam	!
8E\L	.	8e\	.	8g#/L 8B/	.	16gg#'\LL	.
!	!	!LO:TX:t=cres:problem:dynamics with extention lines	!LO:HP:t=cres:ext=cd	!	!	!LO:TX:t=cres:problem:dynamics with extention lines	!LO:HP:t=cres:ext=cd
.	.	.	<	.	.	(16b/	<
8BB#X\J	.	4g#^<\	.	8dd#\J	.	16gg#^<\)	.
.	.	.	.	.	.	(16ff#\JJ	.
!	!	!	!	!	!	!LO:TX:a:t=P:problem:mixedbeam	!
8C#/L	.	.	.	8cc#\L	.	16ee\LL)	.
.	.	.	.	.	.	(16e/	.
8GG#/	.	4e^<\	.	8b\J	.	16ee^<\)	.
.	.	.	.	.	.	(16ddn\JJ	.
!	!	!	!	!	!	!LO:TX:a:t=P:problem:mixedbeam	!
8AA/	.	.	.	8a/L	.	16cc#\LL)	.
.	.	.	.	.	.	(16c#/	.
8GG#/J	.	8r	.	8e/J	.	16cc#^<\)	.
.	.	.	[[	.	.	(16b\JJ	[[
=288	=288	=288	=288	=288	=288	=288	=288
2.FF#/	.	(2.c#\	f	(<2.e/	.	8a#X'\L)	f
.	.	.	.	.	.	16eee'\L	.
.	.	.	.	.	.	16ccc#'\JJ	.
.	.	.	.	.	.	16aa#X'\LL	.
.	.	.	.	.	.	16ff#'\	.
.	.	.	.	.	.	16ee'\	.
.	.	.	.	.	.	16cc#'\JJ	.
.	.	.	.	.	.	4a#Xtt\	.
=289	=289	=289	=289	=289	=289	=289	=289
!!LO:PB:g=original
!	!	!LO:TX:t=P:problem:brak zakończenia łuku	!	!LO:TX:a:t=P:problem:mixedbeam	!	!	!
2.BB/	.	4B\)	.	8d#/L)	.	4an\	.
.	.	.	.	(16aa\L	.	.	.
.	.	.	.	16gg#\JJ	.	.	.
.	.	(2d#\	.	16ff#\LL	.	(4.ff#\	.
.	.	.	.	16ee\	.	.	.
.	.	.	.	16dd#\	.	.	.
.	.	.	.	16cc#\JJ	.	.	.
.	.	.	.	16b\LL	.	.	.
.	.	.	.	16a\	.	.	.
.	.	.	.	16g#\	.	8a/)	.
.	.	.	.	16f#\JJ	.	.	.
=290	=290	=290	=290	=290	=290	=290	=290
4E\	.	8e\)	.	4e/)	<	8g#\	.
.	.	4e^<\	.	.	.	4ee^<\	.
8r	.	.	.	8r	.	.	.
(8E\L	.	4e^<\	.	(8g#/L	.	4ee^<\	.
8F#\	.	.	.	8a/	.	.	.
8F##X\J	.	[8e^<\	.	8a#X/J	[[	[8ee^<\	.
=291	=291	=291	=291	=291	=291	=291	=291
4G#\)	.	4e\]	ff	4b\)	.	4ee\]	ff
2Gn\	rfz	(2dn\	.	(2b\	rf	(16ffn\LL	.
.	.	.	.	.	.	16dd#\)	.
.	.	.	.	.	.	16b'\	.
.	.	.	.	.	.	16gn'\JJ	.
.	.	.	.	.	.	(16fn/LL	.
.	.	.	.	.	.	16d#/	.
.	.	.	.	.	.	16g/	.
.	.	.	.	.	.	16f/JJ)	.
=292	=292	=292	=292	=292	=292	=292	=292
4Cn/	.	4cn\)	.	4ccn\)	.	8e/L	.
.	.	.	.	.	.	16r	.
.	.	.	.	.	.	16Gn/J	.
4r	.	4r	.	4r	.	(16cn/LL	<
.	.	.	.	.	.	16e/)	.
.	.	.	.	.	.	16g#'/	.
.	.	.	.	.	.	16cc#'/JJ	.
4r	.	4r	.	4r	.	16ee\LL	.
.	.	.	.	.	.	16ggn\	.
.	.	.	.	.	.	16ccc#\	.
.	.	.	.	.	.	16eee\JJ	[[
=293	=293	=293	=293	=293	=293	=293	=293
8CCn/L	.	8cn\L	fz >	8e/L	.	2.gggn\	fz > ]]
8CC/	.	8c\	.	8e/	.	.	.
8CC/	.	8c\	.	8e/	.	.	.
8CC/	.	8c\	.	8e/	.	.	.
8CC/	.	8c\	.	8e/	.	.	.
8CC/J	.	8c\J	]]	8e/J	.	.	.
=294	=294	=294	=294	=294	=294	=294	=294
*	*	*	*	*rep	*	*	*
8Cn/L	.	8Gn/L	.	8e/L	.	(>2.A#X^tt/	.
8C/	.	8G/	.	8e/	.	.	.
8C/	.	8G/	.	8e/	.	.	.
8C/	.	8G/	.	8e/	.	.	.
8C/	.	8G/	.	8e/	.	.	.
8C/J	.	8G/J	.	8e/J	.	.	.
*	*	*	*	*Xrep	*	*	*
.	.	.	.	.	.	(16qqG##/LL	.
.	.	.	.	.	.	16qqA#/JJ)	.
=295	=295	=295	=295	=295	=295	=295	=295
[2.BB/	.	[2.G#X/	.	[2.e/	.	8B'/L)	.
.	.	.	<	.	.	(16B/L	.
.	.	.	.	.	.	16c#/JJ	.
.	.	.	.	.	.	16d#/LL	<
.	.	.	.	.	.	16e/	.
.	.	.	.	.	.	16f#/	.
.	.	.	.	.	.	16gn/JJ	.
.	.	.	.	.	.	16g#X/LL	.
.	.	.	.	.	.	16a/	.
.	.	.	.	.	.	16a#X/	.
.	.	.	.	.	.	16b/JJ	.
=296	=296	=296	=296	=296	=296	=296	=296
2.BB/]	.	2G#/]	[	2e/]	.	16b#X\LL	.
.	.	.	.	.	.	16cc#\	.
.	.	.	.	.	.	16ddn\	.
.	.	.	>	.	.	16dd#X\JJ	.
.	.	.	.	.	.	16ee\LL	[
.	.	.	.	.	.	16ee#X\	.
.	.	.	.	.	.	16ff#\	.
.	.	.	.	.	.	16ff##X\JJ)	.
.	.	4A/	]]	4d#/	.	(8.gg#\L	>
!	!	!	!	!	!	!LO:TX:a:t=P:problem:kasownik przed krzyżykiem	!
.	.	.	.	.	.	16ff#X\Jk	]]
=297	=297	=297	=297	=297	=297	=297	=297
4E\	.	4G#/	p	4e/	.	4ee\)	p
4r	.	4r	.	(4ee^<\	.	4r	.
4r	.	4r	.	8.g#\L	.	4r	.
.	.	.	.	16a\Jk	.	.	.
=298	=298	=298	=298	=298	=298	=298	=298
4r	.	2.r	.	4b\)	.	2.r	.
(4e\	.	.	.	[4e/	.	.	.
8.G#\L	.	.	.	8.e/L]	.	.	.
16A\Jk)	.	.	.	16f#/Jk	.	.	.
=299	=299	=299	=299	=299	=299	=299	=299
[2.B\	.	([2.e\	.	([2g#/	<	4r	.
.	.	.	<	.	.	(4eee^<\	.
.	.	.	.	.	.	.	<
.	.	.	.	8.g#/L]	.	8.ee\L	.
.	.	.	[[	16a/Jk	[[	16ff#\Jk)	[[
=300	=300	=300	=300	=300	=300	=300	=300
!!LO:LB:g=original
*	*	*Xtremolo	*	*Xtremolo	*	*	*
2.B\]	.	8e\L]	>	[2b\	.	(4gg#\	>
.	.	8e#X\J	.	.	.	.	.
.	.	2f#\)	.	.	.	4aa\	.
.	.	.	.	8b\L]	.	4dd#\	]]
.	.	.	]	8a\J)	.	.	.
=301	=301	=301	=301	=301	=301	=301	=301
4E\	.	4e\	.	4g#/	.	4ee\)	.
4r	.	(4ee^<\	.	4r	.	4r	.
4r	.	8.g#\L	.	4r	.	4r	.
.	.	16a\Jk	.	.	.	.	.
=302	=302	=302	=302	=302	=302	=302	=302
4r	.	4b\)	.	4r	.	2.r	.
4r	.	(4e'\	.	4r	.	.	.
(4AA/	.	4f#'\)	.	(8.d#/L	.	.	.
.	.	.	.	16c#/Jk)	.	.	.
=303	=303	=303	=303	=303	=303	=303	=303
!LO:TX:a:t=P:problem:mixedbeam	!	!	!	!	!	!	!
8.GG#/L)	.	[2.g#\	.	(>8.B#X/L	.	([2.gg#\	<
(16G#\Jk	.	.	.	16B#/Jk	.	.	.
4A#X\	.	.	.	4c#/	.	.	.
4B#X\	.	.	.	4d#/	.	.	.
=304	=304	=304	=304	=304	=304	=304	=304
4c#\)	.	4g#\]	.	4e/')	.	16gg#\LL]	.
.	.	.	.	.	.	16eee\	.
.	.	.	.	.	.	16ddd#\	[
.	.	.	.	.	.	16ccc#\JJ	.
2d#\	.	[2b\	.	2f#/	.	16bb\LL	.
.	.	.	.	.	.	16ccc#\	.
.	.	.	.	.	.	16bb\	>
.	.	.	.	.	.	16aa#X\JJ	.
.	.	.	.	.	.	16bb\LL	.
.	.	.	.	.	.	16ff#\	.
.	.	.	.	.	.	16bb\	.
.	.	.	.	.	.	16aan\JJ	]]
=305	=305	=305	=305	=305	=305	=305	=305
!	!	!	!	!LO:TX:a:t=P:problem:mixedbeam	!	!	!
4e\	.	8b\L]	.	8e/L	.	8gg#\L)	.
.	.	(8a'\	.	(8cc#'\J	.	(8ff#'\	.
.	.	.	.	.	.	.	>
4r	.	8g#'\	.	8b'/L	.	8ee'\	.
.	.	8f#'\	.	8a'/	.	8dd#'\	.
4r	.	8e'\	.	8g#'/	.	8cc#'\	.
.	.	8dny'\J	.	8f#'/J	.	8b'\J)	]]
=306	=306	=306	=306	=306	=306	=306	=306
4r	.	2.c#^<\)	.	2.e^/)	.	4a\	.
4r	.	.	.	.	.	[2ee\	fz
(4A\	.	.	.	.	.	.	.
=307	=307	=307	=307	=307	=307	=307	=307
2A#X\)	fz	2.c#\	fz	2.gn/	fz	4ee\]	.
.	.	.	.	.	.	([2eee\	fz
(4AA#X/	.	.	.	.	.	.	.
=308	=308	=308	=308	=308	=308	=308	=308
!	!	!	!	!	!	!LO:TUP:a	!
[2.BB/)	.	(>2.B/	f	(>2.g#X/	f	12eee\L]	.
.	.	.	.	.	.	12bb\)	f
.	.	.	.	.	.	12gg#'\J	.
*	*	*	*	*	*	*Xtuplet	*
.	.	.	.	.	.	12ee'\L	.
.	.	.	.	.	.	12b'\	.
.	.	.	.	.	.	12g#'\J	.
*	*	*	*	*	*	*tuplet	*
!	!	!	!	!	!	!LO:TUP:a	!
.	.	.	.	.	.	(12b'/L	.
.	.	.	.	.	.	12g#'/	.
.	.	.	.	.	.	12e'/J)	.
=309	=309	=309	=309	=309	=309	=309	=309
!	!	!LO:TX:t=dim:problem:dynamics with extention lines	!LO:HP:t=dim:ext=cd	!	!	!	!
2.BB/]	.	2G#/	>	4e/	.	(2B/	>
.	.	.	.	4B/	.	.	.
.	.	4F#/)	]]	4A/)	.	4d#tt/)	.
=310||	=310||	=310||	=310||	=310||	=310||	=310||	=310||
*k[f#]	*	*k[f#]	*	*k[f#]	*	*k[f#]	*
!LO:TX:t=P:problem:znaki[F# Cn Gn Dn]	!	!LO:TX:t=P:problem:znaki[f# cn gn dn]	!	!LO:TX:t=P:problem:znaki[ff# ccn ggn ddn]	!	!LO:TX:t=P:problem:znaki[ff# ccn ggn ddn]	!
8EE/	.	8E/	p	4G/	.	(>2.e/	p
4E\	.	4G/	.	.	.	.	.
.	.	.	.	4r	.	.	.
4E\	.	4G/	.	.	.	.	.
.	.	.	.	4r	.	.	.
[8E\	.	[8G/	.	.	.	.	.
=311	=311	=311	=311	=311	=311	=311	=311
8E\L]	.	8G/L]	.	2.r	.	[2.ee\)	.
(8E\	.	(8G/	.	.	.	.	.
8F#\)	.	8A/)	.	.	.	.	<
(8F#\	.	(8A/	<	.	.	.	.
8G\)	.	8B/)	.	.	.	.	.
(8G\J	.	(8B/J	.	.	.	.	.
=312	=312	=312	=312	=312	=312	=312	=312
4.A\)	.	4.c/)	.	2.r	.	4ee\]	.
.	.	.	.	.	.	(8dd#X\L	.
(8G\L	.	(8B/L	.	.	.	8ee\	[
8F#\	.	8A/	[	.	.	8ff#\	.
8E\J	.	8G#X/J)	.	.	.	8gg\J	.
=313	=313	=313	=313	=313	=313	=313	=313
!!LO:LB:g=original
!LO:TX:t=P:problem:brak zakończenia łuku	!	!	!	!	!	!	!
2.D#X\)	.	2.F#/	.	4r	.	4.aa\	>
.	.	.	>	[2b\	.	.	.
.	.	.	.	.	.	8ff#\L	.
.	.	.	.	.	.	8bb\	.
.	.	.	]]	.	.	8aa\J	]
=314	=314	=314	=314	=314	=314	=314	=314
(8E\L	.	(8G/L	p	4.b\]	.	(8gg\L)	p
8F#\	.	8A/J	.	.	.	8ff#\	.
8G\	.	4B\	.	.	.	8ee\	.
8G#X\	.	.	.	(8b\L	.	8ddn\	.
8A\	.	8c\L	.	8a\	.	8cc\	.
8B\J	.	8d\J	.	8g#X\J	.	8b\J)	.
=315	=315	=315	=315	=315	=315	=315	=315
(4c\)	.	2e\	.	4a\)	.	(4a\SSs	.
4A\	.	.	.	4r	.	8dd\L	>
.	.	.	.	.	.	8cc\	.
4AA/)	.	8c\L	.	4r	.	8a\	]
.	.	8A\J	.	.	.	8f#\J)	.
=316	=316	=316	=316	=316	=316	=316	=316
2.BB/	.	(<4G/)	.	4r	.	(>4e/	.
.	.	4B/	.	4r	.	4.g^/	.
.	.	4A/	.	(4d#X/	.	.	.
.	.	.	.	.	.	8f#/	.
=317	=317	=317	=317	=317	=317	=317	=317
!	!	!LO:TX:t=P:problem:mixed beam	!	!	!	!	!
2.E\	.	8G/L)	.	8e/L)	.	4e/)	.
.	.	(8e\	.	(8g/	.	.	.
.	.	8f#\)	.	8a/)	.	4r	.
.	.	(8f#\	.	(8a/J	.	.	.
.	.	8g\)	.	8b\)L	.	4r	.
.	.	(8g\J	.	[8b\J	<	.	.
=318	=318	=318	=318	=318	=318	=318	=318
([2.e\	<[	8g#X\L)	.	8b\L]	.	2.r	.
.	.	(8g#\	.	(8b\	.	.	.
.	.	8a\)	.	8cc\)	.	.	.
.	.	(8a\	.	(8cc\	.	.	.
.	.	8b\)	.	8dd\)	.	.	.
.	.	((8b\J	.	((8dd\J	[[	.	.
=319	=319	=319	=319	=319	=319	=319	=319
4e\]	.	2a\)	.	2cc\)	.	2.r	.
8fn\L	.	.	.	.	.	.	.
8e\	.	.	.	.	.	.	.
8d\	.	8fn\L	.	8b\L	.	.	.
8c\J	>	([8e\J)	.	8a\J)	>	.	.
=320	=320	=320	=320	=320	=320	=320	=320
(8B\L)	.	8e\L]	.	(>8g/L	.	4r	.
8A\J	.	8c\J	.	8f#/J	.	.	.
4G\	.	4B/	.	4.e/	.	[2b^<\	.
!	!	!	!	!	!	!LO:TX:b:i:t=espres&colon;	!
4F#\)	]	4A/)	.	.	.	.	.
.	.	.	.	8d#X/)	]]	.	.
=321	=321	=321	=321	=321	=321	=321	=321
[2.E\	p	2G/	.	(2e/	.	4b\]	p
.	.	.	.	.	.	([2ee^<\	.
!	!	!	!	!LO:TX:t=P:problem:kasownik dopisany ołówkiem	!	!	!
.	.	4G#X/	.	4d/	.	.	.
=322	=322	=322	=322	=322	=322	=322	=322
2.E\]	.	2.A/	.	2.c/)	.	8ee\L]	.
.	.	.	.	.	.	8cc\	.
.	.	.	.	.	.	8a\	.
.	.	.	.	.	.	8f#\J	.
.	.	.	.	.	.	4d#X/	.
=323	=323	=323	=323	=323	=323	=323	=323
[2.EE/	.	(>4G/	<	(>4.B/	.	(>[2.e/)	<
.	.	8G#X/L	.	.	.	.	.
.	.	8A/J	.	8c/	.	.	.
.	.	4B/	.	[4d/	.	.	.
=324	=324	=324	=324	=324	=324	=324	=324
2.EE/_	.	2.A/)	[	4d/]	.	8e/L]	[
.	.	.	>	.	.	8fn/	>
.	.	.	.	2c/)	.	8e/	.
.	.	.	.	.	.	8a/	.
.	.	.	.	.	.	8cc/	.
.	.	.	]]	.	.	8d#X/J)	]
=325	=325	=325	=325	=325	=325	=325	=325
*	*	*tremolo	*	*tremolo	*	*	*
4EE/]	p	8G/L	p	8B/L	.	2.e/	p
.	.	8G/	.	8B/	.	.	.
!LO:TX:b:i:t=espres	!	!	!	!	!	!	!
(4E\	.	8G/	.	8B/	.	.	.
.	.	8G/	.	8B/	.	.	.
8.GG/L	.	8G/	.	8B/	.	.	.
.	.	8G/J	.	8B/J	.	.	.
16AA/Jk)	.	.	.	.	.	.	.
=326	=326	=326	=326	=326	=326	=326	=326
2.BB/	.	8F#^>/L	.	8A^>/L	.	(4d#X/	.
.	.	8F#/	.	8A/	.	.	.
.	.	8F#/	.	8A/	.	4cc^<\	.
.	.	8F#/	.	8A/	.	.	.
.	.	8F#/	.	8A/	.	4b\	.
.	.	8F#/J	.	8A/J	.	.	.
=327	=327	=327	=327	=327	=327	=327	=327
!!LO:LB:g=original
!	!	!	!	!	!	!LO:TX:t=P:problem:brak zakończenia łuku	!
4E\	.	8E/L	.	8G/L	.	2.e/)	.
.	.	8G/J	.	8B/J	.	.	.
(4E\	.	8G/L	.	8B/L	.	.	.
.	.	8G/	.	8B/	.	.	.
8.GG/L	.	8G/	.	8B/	.	.	.
.	.	8G/J	.	8B/J	.	.	.
16AA/Jk)	.	.	.	.	.	.	.
=328	=328	=328	=328	=328	=328	=328	=328
2.BB/	.	8F#^/L	.	8A^>/L	.	(4d#X/	.
.	.	8F#/	.	8A/	.	.	.
.	.	8F#/	.	8A/	.	4cc^<\	.
.	.	8F#/	.	8A/	.	.	.
.	.	8F#/	.	8A/	.	4b\)	.
.	.	8F#/J	.	8A/J	.	.	.
=329	=329	=329	=329	=329	=329	=329	=329
*	*	*Xtremolo	*	*	*	*	*
[2.EE/	.	(>[4E/	<	(>4G/	.	[2.e/	<
.	.	8E/L]	.	8G#X/L	.	.	.
.	.	8F#/	.	8A/	.	.	.
!	!	!LO:TX:b:i:t=acceler&colon;	!	!LO:TX:b:i:t=acceler&colon;	!	!	!
.	.	8G#/	.	8B/	.	.	.
!	!	!	!	!	!	!LO:TX:a:i:t=acceler&colon;	!
.	.	8A/J	.	8c/J)	.	.	.
=330	=330	=330	=330	=330	=330	=330	=330
2.EE/]	.	(>4B/)	.	(>4d/	.	2.e/_	.
.	.	4A#/	.	4c#X/	.	.	.
.	.	4A/	[	4cn/	.	.	[[
=331	=331	=331	=331	=331	=331	=331	=331
!	!	!	!	!	!	!LO:TUP:b	!
[2.EE/	.	[2.G#/)	f	[2.B/)	.	12e/L]	f
.	.	.	.	.	.	12g#X/	[ <
.	.	.	.	.	.	12b/J	.
*	*	*	*	*	*	*Xtuplet	*
.	.	.	.	.	.	12ee\L	.
.	.	.	.	.	.	12gg#X\	.
.	.	.	.	.	.	12bb\J	.
*	*	*	*	*	*	*8va	*
.	.	.	.	.	.	12eee\L	.
.	.	.	.	.	.	12ggg#X\	[
.	.	.	.	.	.	12bbb\J	.
=332	=332	=332	=332	=332	=332	=332	=332
4EE/]	.	4G#/]	ff	4B/]	ff	4eeee\	ff
*	*	*	*	*	*	*X8va	*
!	!	!	!	!	!	!LO:TX:t=loco	!
4BB/ 4EE/	sf	4e/ 4G#X/	sf	4ee/ 4b/ 4e/	sf	4gg#X\ 4b\ 4e\	sf
4r	.	4r	.	4r	.	4r	.
==	==	==	==	==	==	==	==
*-	*-	*-	*-	*-	*-	*-	*-
!!!system-decoration: {(<g1>,s3,s4)}
!!!RDF**kern: > = above
!!!RDF**kern: < = below
!!!RDF**dynam: > = dimin
!!!EED: Andrzej Borzym
!!!EST: 2021-04-21
!!!ENC:Berenika Jozajtis
!!!END:2021-04-09
